projects/IntermediateGraphicsAssignment1/res/luts/I LOVE LEAN.cube
#Created by: Adobe Photoshop Export Color Lookup Plugin
TITLE "LEAN"
#LUT size
LUT_3D_SIZE 32
#data domain
DOMAIN_MIN 0.0 0.0 0.0
DOMAIN_MAX 1.0 1.0 1.0
#LUT data points
0.000000 0.000000 0.000000
0.012299 0.000000 0.084961
0.026367 0.000000 0.155701
0.041168 0.000000 0.208588
0.056458 0.000000 0.253021
0.072174 0.000000 0.293884
0.088196 0.000000 0.332153
0.104462 0.000000 0.368347
0.120972 0.000000 0.402893
0.137695 0.000000 0.436035
0.154572 0.000000 0.467957
0.171631 0.000000 0.498901
0.188843 0.000000 0.528900
0.206238 0.000000 0.558075
0.223724 0.000000 0.586517
0.241364 0.000000 0.614319
0.259125 0.000000 0.641541
0.276947 0.000000 0.668213
0.294891 0.000000 0.694305
0.312988 0.000000 0.719971
0.331116 0.000000 0.745178
0.349365 0.000000 0.769989
0.367676 0.000000 0.794403
0.386078 0.000000 0.818451
0.404572 0.000000 0.842194
0.423126 0.000000 0.865570
0.441772 0.000000 0.888641
0.460449 0.000000 0.911469
0.479218 0.000000 0.933960
0.498077 0.000000 0.956238
0.516998 0.000000 0.978210
0.535950 0.000000 1.000000
0.022980 0.002319 0.000000
0.022980 0.000000 0.038269
0.049194 0.000000 0.147247
0.068420 0.000000 0.208588
0.084381 0.000000 0.253021
0.100586 0.000000 0.293884
0.117065 0.000000 0.332153
0.133698 0.000000 0.368347
0.150604 0.000000 0.402893
0.167603 0.000000 0.436035
0.184814 0.000000 0.467957
0.202087 0.000000 0.498901
0.219543 0.000000 0.528900
0.237152 0.000000 0.558075
0.254944 0.000000 0.586517
0.272705 0.000000 0.614319
0.290680 0.000000 0.641541
0.308685 0.000000 0.668213
0.326874 0.000000 0.694305
0.345123 0.000000 0.719971
0.363373 0.000000 0.745178
0.381714 0.000000 0.769989
0.400146 0.000000 0.794403
0.418732 0.000000 0.818451
0.437439 0.000000 0.842194
0.456085 0.000000 0.865570
0.474884 0.000000 0.888641
0.493683 0.000000 0.911469
0.512451 0.000000 0.933960
0.531403 0.000000 0.956238
0.550598 0.000000 0.978210
0.569519 0.000000 1.000000
0.049194 0.006653 0.000000
0.049194 0.000275 0.000000
0.049194 0.000000 0.074371
0.076813 0.000000 0.173431
0.105377 0.000000 0.241516
0.129761 0.000000 0.293884
0.146576 0.000000 0.332153
0.163574 0.000000 0.368347
0.180725 0.000000 0.402893
0.197998 0.000000 0.436035
0.215454 0.000000 0.467957
0.233032 0.000000 0.498901
0.250763 0.000000 0.528900
0.268494 0.000000 0.558075
0.286377 0.000000 0.586517
0.304413 0.000000 0.614319
0.322540 0.000000 0.641541
0.340759 0.000000 0.668213
0.359009 0.000000 0.694305
0.377350 0.000000 0.719971
0.395905 0.000000 0.745178
0.414368 0.000000 0.769989
0.432892 0.000000 0.794403
0.451569 0.000000 0.818451
0.470306 0.000000 0.842194
0.489258 0.000000 0.865570
0.508057 0.000000 0.888641
0.526886 0.000000 0.911469
0.546112 0.000000 0.933960
0.564941 0.000000 0.956238
0.584137 0.000000 0.978210
0.603271 0.000000 1.000000
0.076813 0.012299 0.000000
0.076813 0.003204 0.000000
0.076813 0.000000 0.026703
0.076813 0.000000 0.107788
0.105377 0.000000 0.195892
0.134644 0.000000 0.259979
0.164520 0.000000 0.317078
0.193909 0.000000 0.368347
0.211334 0.000000 0.402893
0.228851 0.000000 0.436035
0.246552 0.000000 0.467957
0.264282 0.000000 0.498901
0.282166 0.000000 0.528900
0.300140 0.000000 0.558075
0.318268 0.000000 0.586517
0.336365 0.000000 0.614319
0.354706 0.000000 0.641541
0.373077 0.000000 0.668213
0.391510 0.000000 0.694305
0.410034 0.000000 0.719971
0.428497 0.000000 0.745178
0.447174 0.000000 0.769989
0.466034 0.000000 0.794403
0.484680 0.000000 0.818451
0.503601 0.000000 0.842194
0.522614 0.000000 0.865570
0.541595 0.000000 0.888641
0.560547 0.000000 0.911469
0.579712 0.000000 0.933960
0.598877 0.000000 0.956238
0.618134 0.000000 0.978210
0.637207 0.000000 1.000000
0.105377 0.019012 0.000000
0.105377 0.007874 0.000000
0.105377 0.000732 0.000000
0.105377 0.000000 0.063416
0.105377 0.000000 0.138397
0.134644 0.000000 0.216248
0.164520 0.000000 0.277802
0.194885 0.000000 0.333313
0.225708 0.000000 0.384583
0.256897 0.000000 0.432739
0.277924 0.000000 0.467957
0.295868 0.000000 0.498901
0.313904 0.000000 0.528900
0.332092 0.000000 0.558075
0.350342 0.000000 0.586517
0.368652 0.000000 0.614319
0.387115 0.000000 0.641541
0.405640 0.000000 0.668213
0.424133 0.000000 0.694305
0.442749 0.000000 0.719971
0.461487 0.000000 0.745178
0.480255 0.000000 0.769989
0.499207 0.000000 0.794403
0.517975 0.000000 0.818451
0.537109 0.000000 0.842194
0.556000 0.000000 0.865570
0.575104 0.000000 0.888641
0.594330 0.000000 0.911469
0.613434 0.000000 0.933960
0.632751 0.000000 0.956238
0.652039 0.000000 0.978210
0.671539 0.000000 1.000000
0.134644 0.026672 0.000000
0.134644 0.013794 0.000000
0.134644 0.004181 0.000000
0.134644 0.000000 0.014862
0.134644 0.000000 0.097778
0.134644 0.000000 0.165710
0.164520 0.000000 0.235718
0.194885 0.000000 0.295135
0.225708 0.000000 0.349182
0.256897 0.000000 0.399384
0.288422 0.000000 0.446716
0.320282 0.000000 0.491669
0.346100 0.000000 0.528900
0.364288 0.000000 0.558075
0.382751 0.000000 0.586517
0.401184 0.000000 0.614319
0.419769 0.000000 0.641541
0.438446 0.000000 0.668213
0.457153 0.000000 0.694305
0.475861 0.000000 0.719971
0.494690 0.000000 0.745178
0.513550 0.000000 0.769989
0.532562 0.000000 0.794403
0.551483 0.000000 0.818451
0.570587 0.000000 0.842194
0.589722 0.000000 0.865570
0.609009 0.000000 0.888641
0.628082 0.000000 0.911469
0.647400 0.000000 0.933960
0.666809 0.000000 0.956238
0.686340 0.000000 0.978210
0.705780 0.000000 1.000000
0.164520 0.035156 0.000000
0.164520 0.020752 0.000000
0.164520 0.009186 0.000000
0.164520 0.001373 0.000000
0.164520 0.000000 0.052368
0.164520 0.000000 0.129242
0.164520 0.000000 0.189392
0.194885 0.000000 0.254333
0.225708 0.000000 0.311951
0.256897 0.000000 0.364685
0.288422 0.000000 0.413971
0.320282 0.000000 0.460541
0.352417 0.000000 0.504883
0.384796 0.000000 0.547424
0.415314 0.000000 0.586517
0.433929 0.000000 0.614319
0.452667 0.000000 0.641541
0.471466 0.000000 0.668213
0.490204 0.000000 0.694305
0.509064 0.000000 0.719971
0.528076 0.000000 0.745178
0.547028 0.000000 0.769989
0.566101 0.000000 0.794403
0.585144 0.000000 0.818451
0.604431 0.000000 0.842194
0.623657 0.000000 0.865570
0.642883 0.000000 0.888641
0.662231 0.000000 0.911469
0.681732 0.000000 0.933960
0.700989 0.000000 0.956238
0.720520 0.000000 0.978210
0.740173 0.000000 1.000000
0.194885 0.044373 0.000000
0.194885 0.028595 0.000000
0.194885 0.015350 0.000000
0.194885 0.005249 0.000000
0.194885 0.000000 0.002930
0.194885 0.000000 0.087494
0.194885 0.000000 0.157684
0.194885 0.000000 0.210083
0.225708 0.000000 0.272369
0.256897 0.000000 0.328339
0.288422 0.000000 0.379974
0.320282 0.000000 0.428253
0.352417 0.000000 0.474182
0.384796 0.000000 0.517853
0.417450 0.000000 0.559906
0.450348 0.000000 0.600464
0.483459 0.000000 0.639648
0.504578 0.000000 0.668213
0.523590 0.000000 0.694305
0.542572 0.000000 0.719971
0.561676 0.000000 0.745178
0.580658 0.000000 0.769989
0.599854 0.000000 0.794403
0.619202 0.000000 0.818451
0.638458 0.000000 0.842194
0.657745 0.000000 0.865570
0.677155 0.000000 0.888641
0.696533 0.000000 0.911469
0.716003 0.000000 0.933960
0.735565 0.000000 0.956238
0.755127 0.000000 0.978210
0.774719 0.000000 1.000000
0.225708 0.054352 0.000000
0.225708 0.037292 0.000000
0.225708 0.022522 0.000000
0.225708 0.010529 0.000000
0.225708 0.002136 0.000000
0.225708 0.000000 0.040955
0.225708 0.000000 0.119873
0.225708 0.000000 0.182465
0.225708 0.000000 0.229736
0.256897 0.000000 0.289825
0.288422 0.000000 0.344299
0.320282 0.000000 0.394867
0.352417 0.000000 0.442352
0.384796 0.000000 0.487549
0.417450 0.000000 0.530731
0.450348 0.000000 0.572235
0.483459 0.000000 0.612427
0.516754 0.000000 0.651337
0.550262 0.000000 0.689056
0.576294 0.000000 0.719971
0.595306 0.000000 0.745178
0.614502 0.000000 0.769989
0.633759 0.000000 0.794403
0.653198 0.000000 0.818451
0.672455 0.000000 0.842194
0.691986 0.000000 0.865570
0.711304 0.000000 0.888641
0.730988 0.000000 0.911469
0.750397 0.000000 0.933960
0.770050 0.000000 0.956238
0.789642 0.000000 0.978210
0.809387 0.000000 1.000000
0.256897 0.064972 0.000000
0.256897 0.046692 0.000000
0.256897 0.030579 0.000000
0.256897 0.016968 0.000000
0.256897 0.006378 0.000000
0.256897 0.000153 0.000000
0.256897 0.000000 0.076935
0.256897 0.000000 0.149292
0.256897 0.000000 0.203796
0.256897 0.000000 0.248657
0.288422 0.000000 0.306854
0.320282 0.000000 0.359985
0.352417 0.000000 0.409546
0.384796 0.000000 0.456238
0.417450 0.000000 0.500824
0.450348 0.000000 0.543427
0.483459 0.000000 0.584564
0.516754 0.000000 0.624329
0.550262 0.000000 0.662811
0.583954 0.000000 0.700256
0.617798 0.000000 0.736755
0.648499 0.000000 0.769989
0.667999 0.000000 0.794403
0.687378 0.000000 0.818451
0.706787 0.000000 0.842194
0.726379 0.000000 0.865570
0.745880 0.000000 0.888641
0.765350 0.000000 0.911469
0.785187 0.000000 0.933960
0.804718 0.000000 0.956238
0.824554 0.000000 0.978210
0.844208 0.000000 1.000000
0.288422 0.076202 0.000000
0.288422 0.056793 0.000000
0.288422 0.039459 0.000000
0.288422 0.024353 0.000000
0.288422 0.011963 0.000000
0.288422 0.002991 0.000000
0.288422 0.000000 0.029510
0.288422 0.000000 0.110107
0.288422 0.000000 0.175201
0.288422 0.000000 0.223724
0.288422 0.000000 0.266907
0.320282 0.000000 0.323303
0.352417 0.000000 0.375336
0.384796 0.000000 0.423920
0.417450 0.000000 0.469940
0.450348 0.000000 0.513855
0.483459 0.000000 0.556061
0.516754 0.000000 0.596741
0.550262 0.000000 0.636139
0.583954 0.000000 0.674194
0.617798 0.000000 0.711365
0.651825 0.000000 0.747620
0.686035 0.000000 0.782898
0.720367 0.000000 0.817535
0.741302 0.000000 0.842194
0.760742 0.000000 0.865570
0.780365 0.000000 0.888641
0.800110 0.000000 0.911469
0.819885 0.000000 0.933960
0.839478 0.000000 0.956238
0.859314 0.000000 0.978210
0.879150 0.000000 1.000000
0.320282 0.088043 0.000000
0.320282 0.067566 0.000000
0.320282 0.049011 0.000000
0.320282 0.032623 0.000000
0.320282 0.018646 0.000000
0.320282 0.007599 0.000000
0.320282 0.000610 0.000000
0.320282 0.000000 0.066162
0.320282 0.000000 0.140533
0.320282 0.000000 0.197418
0.320282 0.000000 0.242981
0.320282 0.000000 0.284515
0.352417 0.000000 0.339386
0.384796 0.000000 0.390289
0.417450 0.000000 0.438110
0.450348 0.000000 0.483398
0.483459 0.000000 0.526825
0.516754 0.000000 0.568542
0.550262 0.000000 0.608765
0.583954 0.000000 0.647736
0.617798 0.000000 0.685516
0.651825 0.000000 0.722443
0.686035 0.000000 0.758331
0.720367 0.000000 0.793488
0.754852 0.000000 0.827911
0.789490 0.000000 0.861603
0.815186 0.000000 0.888641
0.834961 0.000000 0.911469
0.854706 0.000000 0.933960
0.874634 0.000000 0.956238
0.894470 0.000000 0.978210
0.914215 0.000000 1.000000
0.352417 0.100464 0.000000
0.352417 0.078979 0.000000
0.352417 0.059265 0.000000
0.352417 0.041626 0.000000
0.352417 0.026245 0.000000
0.352417 0.013428 0.000000
0.352417 0.003937 0.000000
0.352417 0.000000 0.017548
0.352417 0.000000 0.100281
0.352417 0.000000 0.167603
0.352417 0.000000 0.217651
0.352417 0.000000 0.261383
0.352417 0.000000 0.301666
0.384796 0.000000 0.355164
0.417450 0.000000 0.405029
0.450348 0.000000 0.451996
0.483459 0.000000 0.496765
0.516754 0.000000 0.539581
0.550262 0.000000 0.580719
0.583954 0.000000 0.620636
0.617798 0.000000 0.659332
0.651825 0.000000 0.696869
0.686035 0.000000 0.733368
0.720367 0.000000 0.769043
0.754852 0.000000 0.803955
0.789490 0.000000 0.838104
0.824249 0.000000 0.871704
0.859161 0.000000 0.904572
0.889648 0.000000 0.933960
0.909668 0.000000 0.956238
0.929474 0.000000 0.978210
0.949677 0.000000 1.000000
0.384796 0.113434 0.000000
0.384796 0.090942 0.000000
0.384796 0.070221 0.000000
0.384796 0.051392 0.000000
0.384796 0.034668 0.000000
0.384796 0.020355 0.000000
0.384796 0.008850 0.000000
0.384796 0.001221 0.000000
0.384796 0.000000 0.055115
0.384796 0.000000 0.131561
0.384796 0.000000 0.191010
0.384796 0.000000 0.237091
0.384796 0.000000 0.279175
0.384796 0.000000 0.318268
0.417450 0.000000 0.370667
0.450348 0.000000 0.419464
0.483459 0.000000 0.465759
0.516754 0.000000 0.509918
0.550262 0.000000 0.552216
0.583954 0.000000 0.593048
0.617798 0.000000 0.632477
0.651825 0.000000 0.670624
0.686035 0.000000 0.707977
0.720367 0.000000 0.744232
0.754852 0.000000 0.779633
0.789490 0.000000 0.814331
0.824249 0.000000 0.848328
0.859161 0.000000 0.881622
0.894196 0.000000 0.914276
0.929352 0.000000 0.946503
0.964600 0.000000 0.978058
0.984985 0.000000 1.000000
0.417450 0.126892 0.000000
0.417450 0.103424 0.000000
0.417450 0.081726 0.000000
0.417450 0.061798 0.000000
0.417450 0.043884 0.000000
0.417450 0.028137 0.000000
0.417450 0.014984 0.000000
0.417450 0.005005 0.000000
0.417450 0.000000 0.005890
0.417450 0.000000 0.089935
0.417450 0.000000 0.159637
0.417450 0.000000 0.211517
0.417450 0.000000 0.255737
0.417450 0.000000 0.296356
0.417450 0.000000 0.334503
0.450348 0.000000 0.385712
0.483459 0.000000 0.433746
0.516754 0.000000 0.479340
0.550262 0.000000 0.522827
0.583954 0.000000 0.564667
0.617798 0.000000 0.605072
0.651825 0.000000 0.644073
0.686035 0.000000 0.682129
0.720367 0.000000 0.719025
0.754852 0.000000 0.755066
0.789490 0.000000 0.790192
0.824249 0.000000 0.824738
0.859161 0.000000 0.858429
0.894196 0.000000 0.891571
0.929352 0.000000 0.924164
0.964600 0.000000 0.956146
1.000000 0.000000 0.987518
0.450348 0.140869 0.000000
0.450348 0.116547 0.000000
0.450348 0.093842 0.000000
0.450348 0.072876 0.000000
0.450348 0.053802 0.000000
0.450348 0.036774 0.000000
0.450348 0.022125 0.000000
0.450348 0.010223 0.000000
0.450348 0.001923 0.000000
0.450348 0.000000 0.043793
0.450348 0.000000 0.122223
0.450348 0.000000 0.184204
0.450348 0.000000 0.231201
0.450348 0.000000 0.273682
0.450348 0.000000 0.313171
0.450348 0.000000 0.350342
0.483459 0.000000 0.400513
0.516754 0.000000 0.447784
0.550262 0.000000 0.492706
0.583954 0.000000 0.535583
0.617798 0.000000 0.577026
0.651825 0.000000 0.616943
0.686035 0.000000 0.655640
0.720367 0.000000 0.693359
0.754852 0.000000 0.729980
0.789490 0.000000 0.765686
0.824249 0.000000 0.800720
0.859161 0.000000 0.835052
0.894196 0.000000 0.868561
0.929352 0.000000 0.901398
0.964600 0.000000 0.933838
1.000000 0.000000 0.965637
0.483459 0.155365 0.000000
0.483459 0.130157 0.000000
0.483459 0.106537 0.000000
0.483459 0.084564 0.000000
0.483459 0.064362 0.000000
0.483459 0.046143 0.000000
0.483459 0.030090 0.000000
0.483459 0.016571 0.000000
0.483459 0.006104 0.000000
0.483459 0.000092 0.000000
0.483459 0.000000 0.079437
0.483459 0.000000 0.151306
0.483459 0.000000 0.205322
0.483459 0.000000 0.250031
0.483459 0.000000 0.291138
0.483459 0.000000 0.329559
0.483459 0.000000 0.365875
0.516754 0.000000 0.415070
0.550262 0.000000 0.461517
0.583954 0.000000 0.505890
0.617798 0.000000 0.548279
0.651825 0.000000 0.589203
0.686035 0.000000 0.628784
0.720367 0.000000 0.667206
0.754852 0.000000 0.704468
0.789490 0.000000 0.740936
0.824249 0.000000 0.776337
0.859161 0.000000 0.811188
0.894196 0.000000 0.845093
0.929352 0.000000 0.878540
0.964600 0.000000 0.911224
1.000000 0.000000 0.943512
0.516754 0.170288 0.000000
0.516754 0.144257 0.000000
0.516754 0.119690 0.000000
0.516754 0.096771 0.000000
0.516754 0.075562 0.000000
0.516754 0.056213 0.000000
0.516754 0.038910 0.000000
0.516754 0.023926 0.000000
0.516754 0.011627 0.000000
0.516754 0.002808 0.000000
0.516754 0.000000 0.032074
0.516754 0.000000 0.112396
0.516754 0.000000 0.176880
0.516754 0.000000 0.225189
0.516754 0.000000 0.268188
0.516754 0.000000 0.308014
0.516754 0.000000 0.345520
0.516754 0.000000 0.381073
0.550262 0.000000 0.429443
0.583954 0.000000 0.475128
0.617798 0.000000 0.518768
0.651825 0.000000 0.560791
0.686035 0.000000 0.601318
0.720367 0.000000 0.640411
0.754852 0.000000 0.678589
0.789490 0.000000 0.715607
0.824249 0.000000 0.751709
0.859161 0.000000 0.786957
0.894196 0.000000 0.821472
0.929352 0.000000 0.855347
0.964600 0.000000 0.888519
1.000000 0.000000 0.921112
0.550262 0.185699 0.000000
0.550262 0.158783 0.000000
0.550262 0.133453 0.000000
0.550262 0.109558 0.000000
0.550262 0.087372 0.000000
0.550262 0.066956 0.000000
0.550262 0.048492 0.000000
0.550262 0.032104 0.000000
0.550262 0.018250 0.000000
0.550262 0.007294 0.000000
0.550262 0.000488 0.000000
0.550262 0.000000 0.068634
0.550262 0.000000 0.142731
0.550262 0.000000 0.198914
0.550262 0.000000 0.244354
0.550262 0.000000 0.285736
0.550262 0.000000 0.324554
0.550262 0.000000 0.361053
0.550262 0.000000 0.395966
0.583954 0.000000 0.443512
0.617798 0.000000 0.488617
0.651825 0.000000 0.531677
0.686035 0.000000 0.573242
0.720367 0.000000 0.613220
0.754852 0.000000 0.652130
0.789490 0.000000 0.689850
0.824249 0.000000 0.726532
0.859161 0.000000 0.762390
0.894196 0.000000 0.797516
0.929352 0.000000 0.831848
0.964600 0.000000 0.865356
1.000000 0.000000 0.898468
0.583954 0.201569 0.000000
0.583954 0.173828 0.000000
0.583954 0.147675 0.000000
0.583954 0.122894 0.000000
0.583954 0.099792 0.000000
0.583954 0.078308 0.000000
0.583954 0.058746 0.000000
0.583954 0.041107 0.000000
0.583954 0.025757 0.000000
0.583954 0.013062 0.000000
0.583954 0.003723 0.000000
0.583954 0.000000 0.020325
0.583954 0.000000 0.102570
0.583954 0.000000 0.169312
0.583954 0.000000 0.219147
0.583954 0.000000 0.262726
0.583954 0.000000 0.302826
0.583954 0.000000 0.340637
0.583954 0.000000 0.376312
0.583954 0.000000 0.410583
0.617798 0.000000 0.457336
0.651825 0.000000 0.501801
0.686035 0.000000 0.544495
0.720367 0.000000 0.585419
0.754852 0.000000 0.625092
0.789490 0.000000 0.663605
0.824249 0.000000 0.701080
0.859161 0.000000 0.737579
0.894196 0.000000 0.773163
0.929352 0.000000 0.807861
0.964600 0.000000 0.842041
1.000000 0.000000 0.875336
0.617798 0.217865 0.000000
0.617798 0.189392 0.000000
0.617798 0.162292 0.000000
0.617798 0.136810 0.000000
0.617798 0.112732 0.000000
0.617798 0.090240 0.000000
0.617798 0.069550 0.000000
0.617798 0.050781 0.000000
0.617798 0.034180 0.000000
0.617798 0.019928 0.000000
0.617798 0.008545 0.000000
0.617798 0.001068 0.000000
0.617798 0.000000 0.057404
0.617798 0.000000 0.133514
0.617798 0.000000 0.192505
0.617798 0.000000 0.238495
0.617798 0.000000 0.280457
0.617798 0.000000 0.319550
0.617798 0.000000 0.356262
0.617798 0.000000 0.391357
0.617798 0.000000 0.424988
0.651825 0.000000 0.470978
0.686035 0.000000 0.514801
0.720367 0.000000 0.556946
0.754852 0.000000 0.597656
0.789490 0.000000 0.636871
0.824249 0.000000 0.675018
0.859161 0.000000 0.712189
0.894196 0.000000 0.748322
0.929352 0.000000 0.783661
0.964600 0.000000 0.818268
1.000000 0.000000 0.852112
0.651825 0.234558 0.000000
0.651825 0.205353 0.000000
0.651825 0.177521 0.000000
0.651825 0.151123 0.000000
0.651825 0.126160 0.000000
0.651825 0.102783 0.000000
0.651825 0.081085 0.000000
0.651825 0.061218 0.000000
0.651825 0.043365 0.000000
0.651825 0.027710 0.000000
0.651825 0.014618 0.000000
0.651825 0.004761 0.000000
0.651825 0.000000 0.008362
0.651825 0.000000 0.092560
0.651825 0.000000 0.161652
0.651825 0.000000 0.213074
0.651825 0.000000 0.257111
0.651825 0.000000 0.297699
0.651825 0.000000 0.335724
0.651825 0.000000 0.371735
0.651825 0.000000 0.406097
0.651825 0.000000 0.439117
0.686035 0.000000 0.484406
0.720367 0.000000 0.527740
0.754852 0.000000 0.569397
0.789490 0.000000 0.609528
0.824249 0.000000 0.648590
0.859161 0.000000 0.686340
0.894196 0.000000 0.723206
0.929352 0.000000 0.759125
0.964600 0.000000 0.794281
1.000000 0.000000 0.828552
0.686035 0.251678 0.000000
0.686035 0.221771 0.000000
0.686035 0.193176 0.000000
0.686035 0.165802 0.000000
0.686035 0.140045 0.000000
0.686035 0.115784 0.000000
0.686035 0.093170 0.000000
0.686035 0.072266 0.000000
0.686035 0.053253 0.000000
0.686035 0.036224 0.000000
0.686035 0.021667 0.000000
0.686035 0.009888 0.000000
0.686035 0.001770 0.000000
0.686035 0.000000 0.046204
0.686035 0.000000 0.124176
0.686035 0.000000 0.185883
0.686035 0.000000 0.232605
0.686035 0.000000 0.274994
0.686035 0.000000 0.314331
0.686035 0.000000 0.351410
0.686035 0.000000 0.386871
0.686035 0.000000 0.420593
0.686035 0.000000 0.453064
0.720367 0.000000 0.497711
0.754852 0.000000 0.540436
0.789490 0.000000 0.581757
0.824249 0.000000 0.621460
0.859161 0.000000 0.659973
0.894196 0.000000 0.697632
0.929352 0.000000 0.734192
0.964600 0.000000 0.769745
1.000000 0.000000 0.804657
0.720367 0.269196 0.000000
0.720367 0.238586 0.000000
0.720367 0.209198 0.000000
0.720367 0.181183 0.000000
0.720367 0.154572 0.000000
0.720367 0.129456 0.000000
0.720367 0.105835 0.000000
0.720367 0.083832 0.000000
0.720367 0.063721 0.000000
0.720367 0.045593 0.000000
0.720367 0.029633 0.000000
0.720367 0.016174 0.000000
0.720367 0.005829 0.000000
0.720367 0.000031 0.000000
0.720367 0.000000 0.081848
0.720367 0.000000 0.153198
0.720367 0.000000 0.206696
0.720367 0.000000 0.251495
0.720367 0.000000 0.292480
0.720367 0.000000 0.330811
0.720367 0.000000 0.367035
0.720367 0.000000 0.401642
0.720367 0.000000 0.434784
0.720367 0.000000 0.466797
0.754852 0.000000 0.510895
0.789490 0.000000 0.553162
0.824249 0.000000 0.593933
0.859161 0.000000 0.633301
0.894196 0.000000 0.671448
0.929352 0.000000 0.708649
0.964600 0.000000 0.745056
1.000000 0.000000 0.780426
0.754852 0.287170 0.000000
0.754852 0.255707 0.000000
0.754852 0.225739 0.000000
0.754852 0.196869 0.000000
0.754852 0.169373 0.000000
0.754852 0.143494 0.000000
0.754852 0.118958 0.000000
0.754852 0.096039 0.000000
0.754852 0.074951 0.000000
0.754852 0.055634 0.000000
0.754852 0.038361 0.000000
0.754852 0.023499 0.000000
0.754852 0.011261 0.000000
0.754852 0.002563 0.000000
0.754852 0.000000 0.034760
0.754852 0.000000 0.114838
0.754852 0.000000 0.178802
0.754852 0.000000 0.226532
0.754852 0.000000 0.269501
0.754852 0.000000 0.309326
0.754852 0.000000 0.346588
0.754852 0.000000 0.382141
0.754852 0.000000 0.416168
0.754852 0.000000 0.448700
0.754852 0.000000 0.480286
0.789490 0.000000 0.523804
0.824249 0.000000 0.565582
0.859161 0.000000 0.605896
0.894196 0.000000 0.644928
0.929352 0.000000 0.682831
0.964600 0.000000 0.719757
1.000000 0.000000 0.755829
0.789490 0.305481 0.000000
0.789490 0.273407 0.000000
0.789490 0.242554 0.000000
0.789490 0.212952 0.000000
0.789490 0.184906 0.000000
0.789490 0.158051 0.000000
0.789490 0.132660 0.000000
0.789490 0.108856 0.000000
0.789490 0.086670 0.000000
0.789490 0.066284 0.000000
0.789490 0.047943 0.000000
0.789490 0.031647 0.000000
0.789490 0.017822 0.000000
0.789490 0.007019 0.000000
0.789490 0.000397 0.000000
0.789490 0.000000 0.071381
0.789490 0.000000 0.144531
0.789490 0.000000 0.200409
0.789490 0.000000 0.245605
0.789490 0.000000 0.287079
0.789490 0.000000 0.325745
0.789490 0.000000 0.362305
0.789490 0.000000 0.396942
0.789490 0.000000 0.430328
0.789490 0.000000 0.462524
0.789490 0.000000 0.493622
0.824249 0.000000 0.536682
0.859161 0.000000 0.577820
0.894196 0.000000 0.617859
0.929352 0.000000 0.656525
0.964600 0.000000 0.694214
1.000000 0.000000 0.730804
0.824249 0.324188 0.000000
0.824249 0.291351 0.000000
0.824249 0.259918 0.000000
0.824249 0.229553 0.000000
0.824249 0.200684 0.000000
0.824249 0.172974 0.000000
0.824249 0.146851 0.000000
0.824249 0.122101 0.000000
0.824249 0.099121 0.000000
0.824249 0.077637 0.000000
0.824249 0.058136 0.000000
0.824249 0.040558 0.000000
0.824249 0.025360 0.000000
0.824249 0.012726 0.000000
0.824249 0.003510 0.000000
0.824249 0.000000 0.023224
0.824249 0.000000 0.105133
0.824249 0.000000 0.171204
0.824249 0.000000 0.220673
0.824249 0.000000 0.263916
0.824249 0.000000 0.304138
0.824249 0.000000 0.341705
0.824249 0.000000 0.377563
0.824249 0.000000 0.411560
0.824249 0.000000 0.444458
0.824249 0.000000 0.476044
0.824249 0.000000 0.506805
0.859161 0.000000 0.549286
0.894196 0.000000 0.590210
0.929352 0.000000 0.629730
0.964600 0.000000 0.667969
1.000000 0.000000 0.705353
0.859161 0.343231 0.000000
0.859161 0.309784 0.000000
0.859161 0.277710 0.000000
0.859161 0.246674 0.000000
0.859161 0.216888 0.000000
0.859161 0.188629 0.000000
0.859161 0.161530 0.000000
0.859161 0.135925 0.000000
0.859161 0.111877 0.000000
0.859161 0.089630 0.000000
0.859161 0.068970 0.000000
0.859161 0.050232 0.000000
0.859161 0.033722 0.000000
0.859161 0.019531 0.000000
0.859161 0.008240 0.000000
0.859161 0.000946 0.000000
0.859161 0.000000 0.060150
0.859161 0.000000 0.135864
