projects/IntermediateGraphicsAssignment1/res/luts/I LOVE LEAN.cube
#Created by: Adobe Photoshop Export Color Lookup Plugin
TITLE "LEAN"
#LUT size
LUT_3D_SIZE 5
#data domain
#LUT data points
DOMAIN_MIN 0.000000 0.000000 0.000000
DOMAIN_MAX 0.903226 0.903226 0.903226
0.000000 0.000000 0.000000
0.104462 0.000000 0.368347
0.223724 0.000000 0.586517
0.349365 0.000000 0.769989
0.479218 0.000000 0.933960
0.194885 0.044373 0.000000
0.194885 0.000000 0.210083
0.417450 0.000000 0.559906
0.580658 0.000000 0.769989
0.716003 0.000000 0.933960
0.417450 0.126892 0.000000
0.417450 0.005005 0.000000
0.417450 0.000000 0.334503
0.651825 0.000000 0.644073
0.894196 0.000000 0.891571
0.651825 0.234558 0.000000
0.651825 0.061218 0.000000
0.651825 0.000000 0.161652
0.651825 0.000000 0.439117
0.894196 0.000000 0.723206
0.894196 0.362671 0.000000
0.894196 0.150269 0.000000
0.894196 0.014252 0.000000
0.894196 0.000000 0.298859
0.894196 0.000000 0.532654
0.000000 0.104889 0.251648
0.000000 0.029541 0.368347
0.021393 0.000000 0.586517
0.131897 0.000000 0.769989
0.252930 0.000000 0.933960
0.077698 0.104889 0.000000
0.194885 0.104889 0.368347
0.319244 0.104889 0.586517
0.448242 0.104889 0.769989
0.580719 0.104889 0.933960
0.386871 0.299835 0.000000
0.417450 0.207153 0.368347
0.417450 0.104889 0.468994
0.651825 0.104889 0.746765
0.820862 0.104889 0.933960
0.651825 0.472595 0.000000
0.651825 0.330750 0.368347
0.651825 0.126892 0.368347
0.651825 0.104889 0.559937
0.894196 0.104889 0.820709
0.894196 0.630890 0.000000
0.894196 0.472687 0.368347
0.894196 0.234589 0.368347
0.894196 0.104889 0.439178
0.894196 0.104889 0.644073
0.000000 0.299835 0.400726
0.000000 0.269989 0.586517
0.000000 0.084412 0.586517
0.000000 0.016876 0.769989
0.045776 0.000000 0.933960
0.000000 0.299835 0.079956
0.194885 0.299835 0.497894
0.194885 0.180969 0.586517
0.223724 0.104889 0.769989
0.349396 0.104889 0.933960
0.166443 0.299835 0.000000
0.289429 0.299835 0.368347
0.417450 0.299835 0.586517
0.549194 0.299835 0.769989
0.683807 0.299835 0.933960
0.486572 0.554291 0.000000
0.619965 0.554291 0.368347
0.651825 0.437653 0.586517
0.651825 0.299835 0.669006
0.894196 0.299835 0.912872
0.828674 0.857086 0.000000
0.894196 0.761719 0.368347
0.894196 0.592133 0.586517
0.894196 0.330750 0.586517
0.894196 0.299835 0.746765
0.000000 0.554291 0.526093
0.000000 0.554291 0.717499
0.000000 0.370392 0.769989
0.000000 0.156006 0.769989
0.000000 0.065460 0.933960
0.000000 0.554291 0.290192
0.194885 0.554291 0.612610
0.194885 0.517273 0.769989
0.194885 0.270020 0.769989
0.194885 0.156036 0.933960
0.051849 0.554291 0.000000
0.194885 0.554291 0.400726
0.417450 0.554291 0.693481
0.417450 0.403534 0.769989
0.448242 0.299835 0.933960
0.259888 0.554291 0.000000
0.386902 0.554291 0.368347
0.517792 0.554291 0.586517
0.651825 0.554291 0.769989
0.788361 0.554291 0.933960
0.588226 0.857086 0.000000
0.723572 0.857086 0.368347
0.861359 0.857086 0.586517
0.894196 0.720459 0.769989
0.894196 0.554291 0.842926
0.000000 0.857086 0.638123
0.000000 0.857086 0.815460
0.000000 0.771729 0.933960
0.000000 0.481110 0.933960
0.000000 0.241241 0.933960
0.000000 0.857086 0.431885
0.194885 0.857086 0.717529
0.194885 0.857086 0.886414
0.194885 0.640137 0.933960
0.194885 0.370422 0.933960
0.000000 0.857086 0.147675
0.194885 0.857086 0.526123
0.417450 0.857086 0.792847
0.417450 0.814056 0.933960
0.417450 0.517273 0.933960
0.138428 0.857086 0.000000
0.259949 0.857086 0.368347
0.417450 0.857086 0.612610
0.651825 0.857086 0.864838
0.651825 0.679962 0.933960
0.356537 0.857086 0.000000
0.486603 0.857086 0.368347
0.619965 0.857086 0.586517
0.755951 0.857086 0.769989
0.894196 0.857086 0.933960
