projects/IntermediateGraphicsAssignment1/res/luts/I LOVE LEAN.cube
#Created by: Adobe Photoshop Export Color Lookup Plugin
TITLE "LEAN"
#LUT size
LUT_3D_SIZE 8
#data domain
#LUT data points
DOMAIN_MIN 0.000000 0.000000 0.000000
DOMAIN_MAX 0.903226 0.903226 0.903226
0.000000 0.000000 0.000000
0.056458 0.000000 0.253021
0.120972 0.000000 0.402893
0.188843 0.000000 0.528900
0.259125 0.000000 0.641541
0.331116 0.000000 0.745178
0.404572 0.000000 0.842194
0.479218 0.000000 0.933960
0.105377 0.019012 0.000000
0.105377 0.000000 0.138397
0.225708 0.000000 0.384583
0.313904 0.000000 0.528900
0.387115 0.000000 0.641541
0.461487 0.000000 0.745178
0.537109 0.000000 0.842194
0.613434 0.000000 0.933960
0.225708 0.054352 0.000000
0.225708 0.002136 0.000000
0.225708 0.000000 0.229736
0.352417 0.000000 0.442352
0.483459 0.000000 0.612427
0.595306 0.000000 0.745178
0.672455 0.000000 0.842194
0.750397 0.000000 0.933960
0.352417 0.100464 0.000000
0.352417 0.026245 0.000000
0.352417 0.000000 0.100281
0.352417 0.000000 0.301666
0.483459 0.000000 0.496765
0.617798 0.000000 0.659332
0.754852 0.000000 0.803955
0.889648 0.000000 0.933960
0.483459 0.155365 0.000000
0.483459 0.064362 0.000000
0.483459 0.006104 0.000000
0.483459 0.000000 0.205322
0.483459 0.000000 0.365875
0.617798 0.000000 0.548279
0.754852 0.000000 0.704468
0.894196 0.000000 0.845093
0.617798 0.217865 0.000000
0.617798 0.112732 0.000000
0.617798 0.034180 0.000000
0.617798 0.000000 0.057404
0.617798 0.000000 0.280457
0.617798 0.000000 0.424988
0.754852 0.000000 0.597656
0.894196 0.000000 0.748322
0.754852 0.287170 0.000000
0.754852 0.169373 0.000000
0.754852 0.074951 0.000000
0.754852 0.011261 0.000000
0.754852 0.000000 0.178802
0.754852 0.000000 0.346588
0.754852 0.000000 0.480286
0.894196 0.000000 0.644928
0.894196 0.362671 0.000000
0.894196 0.233612 0.000000
0.894196 0.125397 0.000000
0.894196 0.042847 0.000000
0.894196 0.000000 0.011658
0.894196 0.000000 0.258453
0.894196 0.000000 0.407227
0.894196 0.000000 0.532654
0.000000 0.044922 0.171661
0.000000 0.012665 0.253021
0.011566 0.000000 0.402893
0.071350 0.000000 0.528900
0.136749 0.000000 0.641541
0.205322 0.000000 0.745178
0.275879 0.000000 0.842194
0.348358 0.000000 0.933960
0.041992 0.044922 0.000000
0.105377 0.044922 0.253021
0.172607 0.044922 0.402893
0.242340 0.044922 0.528900
0.313965 0.044922 0.641541
0.387115 0.044922 0.745178
0.461517 0.044922 0.842194
0.537018 0.044922 0.933960
0.209167 0.128418 0.000000
0.225708 0.088745 0.253021
0.225708 0.044922 0.322113
0.352417 0.044922 0.512909
0.443817 0.044922 0.641541
0.519104 0.044922 0.745178
0.595337 0.044922 0.842194
0.672577 0.044922 0.933960
0.352417 0.202393 0.000000
0.352417 0.141693 0.253021
0.352417 0.054352 0.253021
0.352417 0.044922 0.384583
0.483459 0.044922 0.563812
0.617798 0.044922 0.718201
0.731934 0.044922 0.842194
0.810455 0.044922 0.933960
0.483459 0.270233 0.000000
0.483459 0.202454 0.253021
0.483459 0.100494 0.253021
0.483459 0.044922 0.301575
0.483459 0.044922 0.442413
0.617798 0.044922 0.612396
0.754852 0.044922 0.761597
0.894196 0.044922 0.897675
0.617798 0.344330 0.000000
0.617798 0.270233 0.253021
0.617798 0.155365 0.253021
0.617798 0.064331 0.253021
0.617798 0.044922 0.365875
0.617798 0.044922 0.496765
0.754852 0.044922 0.659210
0.894196 0.044922 0.803925
0.754852 0.424438 0.000000
0.754852 0.344360 0.253021
0.754852 0.217896 0.253021
0.754852 0.112732 0.253021
0.754852 0.044922 0.280518
0.754852 0.044922 0.425018
0.754852 0.044922 0.548309
0.894196 0.044922 0.704559
0.894196 0.509766 0.000000
0.894196 0.424347 0.253021
0.894196 0.287079 0.253021
0.894196 0.169495 0.253021
0.894196 0.074921 0.253021
0.894196 0.044922 0.346710
0.894196 0.044922 0.480225
0.894196 0.044922 0.597565
0.000000 0.128418 0.275299
0.000000 0.115631 0.402893
0.000000 0.036133 0.402893
0.000000 0.007233 0.528900
0.024750 0.000000 0.641541
0.086426 0.000000 0.745178
0.152740 0.000000 0.842194
0.221832 0.000000 0.933960
0.000000 0.128418 0.046997
0.105377 0.128418 0.342010
0.105377 0.077515 0.402893
0.120972 0.044922 0.528900
0.188904 0.044922 0.641541
0.259125 0.044922 0.745178
0.331146 0.044922 0.842194
0.404480 0.044922 0.933960
0.089966 0.128418 0.000000
0.156494 0.128418 0.253021
0.225708 0.128418 0.402893
0.296906 0.128418 0.528900
0.369720 0.128418 0.641541
0.443848 0.128418 0.745178
0.519104 0.128418 0.842194
0.595367 0.128418 0.933960
0.263031 0.237396 0.000000
0.335175 0.237396 0.253021
0.352417 0.187439 0.402893
0.352417 0.128418 0.459534
0.483459 0.128418 0.627075
0.577240 0.128418 0.745178
0.654236 0.128418 0.842194
0.731964 0.128418 0.933960
0.448059 0.367126 0.000000
0.483459 0.326263 0.253021
0.483459 0.253632 0.402893
0.483459 0.141693 0.402893
0.483459 0.128418 0.512939
0.617798 0.128418 0.673340
0.754852 0.128418 0.816803
0.871094 0.128418 0.933960
0.617798 0.489105 0.000000
0.617798 0.404968 0.253021
0.617798 0.326294 0.402893
0.617798 0.202484 0.402893
0.617798 0.128418 0.442444
0.617798 0.128418 0.563751
0.754852 0.128418 0.718170
0.894196 0.128418 0.857666
0.754852 0.578613 0.000000
0.754852 0.489136 0.253021
0.754852 0.404968 0.402893
0.754852 0.270233 0.402893
0.754852 0.155334 0.402893
0.754852 0.128418 0.496765
0.754852 0.128418 0.612396
0.894196 0.128418 0.761597
0.894196 0.673065 0.000000
0.894196 0.578766 0.253021
0.894196 0.489166 0.402893
0.894196 0.344391 0.402893
0.894196 0.217743 0.402893
0.894196 0.128418 0.425049
0.894196 0.128418 0.548340
0.894196 0.128418 0.659241
0.000000 0.237396 0.361328
0.000000 0.237396 0.492828
0.000000 0.158600 0.528900
0.000000 0.066833 0.528900
0.000000 0.028046 0.641541
0.000000 0.002930 0.745178
0.038635 0.000000 0.842194
0.101807 0.000000 0.933960
0.000000 0.237396 0.199341
0.105377 0.237396 0.420776
0.105377 0.221527 0.528900
0.105377 0.115631 0.528900
0.105377 0.066803 0.641541
0.136719 0.044922 0.745178
0.205322 0.044922 0.842194
0.276001 0.044922 0.933960
0.028015 0.237396 0.000000
0.105377 0.237396 0.275299
0.225708 0.237396 0.476349
0.225708 0.172821 0.528900
0.242340 0.128418 0.641541
0.313995 0.128418 0.745178
0.387115 0.128418 0.842194
0.461548 0.128418 0.933960
0.140503 0.237396 0.000000
0.209167 0.237396 0.253021
0.279938 0.237396 0.402893
0.352417 0.237396 0.528900
0.426239 0.237396 0.641541
0.501251 0.237396 0.745178
0.577271 0.237396 0.842194
0.654236 0.237396 0.933960
0.318024 0.367126 0.000000
0.391296 0.367126 0.253021
0.465698 0.367126 0.402893
0.483459 0.308563 0.528900
0.483459 0.237396 0.579010
0.617798 0.237396 0.731720
0.713623 0.237396 0.842194
0.791931 0.237396 0.933960
0.505585 0.514801 0.000000
0.581573 0.514801 0.253021
0.617798 0.468781 0.402893
0.617798 0.385864 0.528900
0.617798 0.253632 0.528900
0.617798 0.237396 0.627075
0.754852 0.237396 0.774811
0.894196 0.237396 0.909882
0.699554 0.678558 0.000000
0.754852 0.650330 0.253021
0.754852 0.557098 0.402893
0.754852 0.468811 0.528900
0.754852 0.326233 0.528900
0.754852 0.237396 0.563782
0.754852 0.237396 0.673370
0.894196 0.237396 0.816772
0.894196 0.851105 0.000000
0.894196 0.748444 0.253021
0.894196 0.650360 0.402893
0.894196 0.557098 0.528900
0.894196 0.404968 0.528900
0.894196 0.270203 0.528900
0.894196 0.237396 0.612396
0.894196 0.237396 0.718170
0.000000 0.367126 0.438324
0.000000 0.367126 0.560120
0.000000 0.330566 0.641541
0.000000 0.206085 0.641541
0.000000 0.103333 0.641541
0.000000 0.056702 0.745178
0.000000 0.020691 0.842194
0.000000 0.000244 0.933960
0.000000 0.367126 0.296692
0.105377 0.367126 0.492889
0.105377 0.367126 0.608887
0.105377 0.274261 0.641541
0.105377 0.158661 0.641541
0.105377 0.103333 0.745178
0.105377 0.056702 0.842194
0.152679 0.044922 0.933960
0.000000 0.367126 0.090424
0.105377 0.367126 0.361389
0.225708 0.367126 0.544617
0.225708 0.348663 0.641541
0.225708 0.221558 0.641541
0.225708 0.158691 0.745178
0.259094 0.128418 0.842194
0.330994 0.128418 0.933960
0.074860 0.367126 0.000000
0.140472 0.367126 0.253021
0.225708 0.367126 0.420776
0.352417 0.367126 0.594025
0.352417 0.291229 0.641541
0.369720 0.237396 0.745178
0.443787 0.237396 0.842194
0.519104 0.237396 0.933960
0.192749 0.367126 0.000000
0.263092 0.367126 0.253021
0.335205 0.367126 0.402893
0.408722 0.367126 0.528900
0.483459 0.367126 0.641541
0.559265 0.367126 0.745178
0.635986 0.367126 0.842194
0.713562 0.367126 0.933960
0.373810 0.514801 0.000000
0.448029 0.514801 0.253021
0.523315 0.514801 0.402893
0.599670 0.514801 0.528900
0.617798 0.448761 0.641541
0.617798 0.367126 0.687378
0.754852 0.367126 0.829529
0.852203 0.367126 0.933960
0.563477 0.678558 0.000000
0.640259 0.678558 0.253021
0.717957 0.678558 0.402893
0.754852 0.627991 0.528900
0.754852 0.535828 0.641541
0.754852 0.385895 0.641541
0.754852 0.367126 0.731720
0.894196 0.367126 0.870117
0.759155 0.857086 0.000000
0.838013 0.857086 0.253021
0.894196 0.826691 0.402893
0.894196 0.724945 0.528900
0.894196 0.627930 0.641541
0.894196 0.468872 0.641541
0.894196 0.367126 0.673431
0.894196 0.367126 0.774841
0.000000 0.514801 0.509155
0.000000 0.514801 0.623596
0.000000 0.514801 0.728485
0.000000 0.390472 0.745178
0.000000 0.257477 0.745178
0.000000 0.144867 0.745178
0.000000 0.091431 0.842194
0.000000 0.047150 0.933960
0.000000 0.514801 0.380249
0.105377 0.514801 0.560120
0.105377 0.514801 0.670044
0.105377 0.473633 0.745178
0.105377 0.330536 0.745178
0.105377 0.206085 0.745178
0.105377 0.144897 0.842194
0.105377 0.091522 0.933960
0.000000 0.514801 0.224152
0.105377 0.514801 0.438324
0.225708 0.514801 0.608917
0.225708 0.514801 0.714935
0.225708 0.409485 0.745178
0.225708 0.274200 0.745178
0.225708 0.206085 0.842194
0.225708 0.144928 0.933960
0.014557 0.514801 0.000000
0.105377 0.514801 0.296661
0.225708 0.514801 0.492920
0.352417 0.514801 0.655853
0.352417 0.494049 0.745178
0.352417 0.348663 0.745178
0.352417 0.274231 0.842194
0.387085 0.237396 0.933960
0.124725 0.514801 0.000000
0.192749 0.514801 0.253021
0.263123 0.514801 0.402893
0.352417 0.514801 0.544617
0.483459 0.514801 0.701233
0.483459 0.428986 0.745178
0.501282 0.367126 0.842194
0.577332 0.367126 0.933960
0.246307 0.514801 0.000000
0.318024 0.514801 0.253021
0.391235 0.514801 0.402893
0.465698 0.514801 0.528900
0.541290 0.514801 0.641541
0.617798 0.514801 0.745178
0.695190 0.514801 0.842194
0.773376 0.514801 0.933960
0.430481 0.678558 0.000000
0.505432 0.678558 0.253021
0.581543 0.678558 0.402893
0.658508 0.678558 0.528900
0.736359 0.678558 0.641541
0.754852 0.605774 0.745178
0.754852 0.514801 0.787903
0.894196 0.514801 0.921936
0.622040 0.857086 0.000000
0.699493 0.857086 0.253021
0.777710 0.857086 0.402893
0.856689 0.857086 0.528900
0.894196 0.802124 0.641541
0.894196 0.701660 0.745178
0.894196 0.535828 0.745178
0.894196 0.514801 0.829529
0.000000 0.678558 0.575409
0.000000 0.678558 0.684113
0.000000 0.678558 0.784790
0.000000 0.610992 0.842194
0.000000 0.453430 0.842194
0.000000 0.312836 0.842194
0.000000 0.190979 0.842194
0.000000 0.131561 0.933960
0.000000 0.678558 0.455444
0.105377 0.678558 0.623596
0.105377 0.678558 0.728516
0.105377 0.678558 0.826447
0.105377 0.540771 0.842194
0.105377 0.390320 0.842194
0.105377 0.257507 0.842194
0.105377 0.190918 0.933960
0.000000 0.678558 0.317413
0.105377 0.678558 0.509186
0.225708 0.678558 0.670044
0.225708 0.678558 0.771698
0.225708 0.633270 0.842194
0.225708 0.473602 0.842194
0.225708 0.330536 0.842194
0.225708 0.257538 0.933960
0.000000 0.678558 0.129761
0.105377 0.678558 0.380249
0.225708 0.678558 0.560120
0.352417 0.678558 0.714935
0.352417 0.678558 0.813782
0.352417 0.562134 0.842194
0.352417 0.409515 0.842194
0.352417 0.330536 0.933960
0.059998 0.678558 0.000000
0.124756 0.678558 0.253021
0.225708 0.678558 0.438293
0.352417 0.678558 0.608856
0.483459 0.678558 0.758514
0.483459 0.655762 0.842194
0.483459 0.494049 0.842194
0.483459 0.409607 0.933960
0.176392 0.678558 0.000000
0.246338 0.678558 0.253021
0.318024 0.678558 0.402893
0.391266 0.678558 0.528900
0.483459 0.678558 0.655884
0.617798 0.678558 0.800903
0.617798 0.583832 0.842194
0.635986 0.514801 0.933960
0.300964 0.678558 0.000000
0.373840 0.678558 0.253021
0.448029 0.678558 0.402893
0.523346 0.678558 0.528900
0.599670 0.678558 0.641541
0.676849 0.678558 0.745178
0.754852 0.678558 0.842194
0.833588 0.678558 0.933960
0.487640 0.857086 0.000000
0.563599 0.857086 0.253021
0.640259 0.857086 0.402893
0.717926 0.857086 0.528900
0.796265 0.857086 0.641541
0.875397 0.857086 0.745178
0.894196 0.778046 0.842194
0.894196 0.678558 0.882507
0.000000 0.857086 0.638123
0.000000 0.857086 0.741974
0.000000 0.857086 0.839142
0.000000 0.857086 0.931061
0.000000 0.683899 0.933960
0.000000 0.519653 0.933960
0.000000 0.371490 0.933960
0.000000 0.241241 0.933960
0.000000 0.857086 0.525146
0.105377 0.857086 0.684082
0.105377 0.857086 0.784882
0.105377 0.857086 0.879547
0.105377 0.783752 0.933960
0.105377 0.610931 0.933960
0.105377 0.453583 0.933960
0.105377 0.312744 0.933960
0.000000 0.857086 0.398651
0.105377 0.857086 0.575348
0.225708 0.857086 0.728546
0.225708 0.857086 0.826477
0.225708 0.857086 0.919159
0.225708 0.707062 0.933960
0.225708 0.540771 0.933960
0.225708 0.390350 0.933960
0.000000 0.857086 0.247711
0.105377 0.857086 0.455566
0.225708 0.857086 0.623627
0.352417 0.857086 0.771698
0.352417 0.857086 0.867188
0.352417 0.807953 0.933960
0.352417 0.633209 0.933960
0.352417 0.473602 0.933960
0.002441 0.857086 0.000000
0.105377 0.857086 0.317322
0.225708 0.857086 0.509033
0.352417 0.857086 0.670044
0.483459 0.857086 0.813721
0.483459 0.857086 0.906952
0.483459 0.730438 0.933960
0.483459 0.562225 0.933960
0.109131 0.857086 0.000000
0.176514 0.857086 0.253021
0.246368 0.857086 0.402893
0.352417 0.857086 0.560089
0.483459 0.857086 0.714996
0.617798 0.857086 0.854736
0.617798 0.832397 0.933960
0.617798 0.655762 0.933960
0.229706 0.857086 0.000000
0.300903 0.857086 0.253021
0.373871 0.857086 0.402893
0.448029 0.857086 0.528900
0.523407 0.857086 0.641541
0.617798 0.857086 0.758514
0.754852 0.857086 0.894806
0.754852 0.754150 0.933960
0.356537 0.857086 0.000000
0.430389 0.857086 0.253021
0.505463 0.857086 0.402893
0.581543 0.857086 0.528900
0.658569 0.857086 0.641541
0.736359 0.857086 0.745178
0.814941 0.857086 0.842194
0.894196 0.857086 0.933960
