projects/IntermediateGraphicsAssignment1/res/luts/warm.cube
#Created by: Adobe Photoshop Export Color Lookup Plugin
TITLE "WarmLUT"
#LUT size
LUT_3D_SIZE 8
#data domain
#LUT data points
DOMAIN_MIN 0.000000 0.000000 0.000000
DOMAIN_MAX 0.903226 0.903226 0.903226
0.000000 0.000000 0.000000
0.269379 0.000000 0.000000
0.455200 0.000000 0.000000
0.617859 0.000000 0.000000
0.747528 0.000000 0.000000
0.848083 0.000000 0.000000
0.923126 0.000000 0.000000
0.975098 0.000000 0.000000
0.000000 0.164032 0.000000
0.269379 0.164032 0.000000
0.455200 0.164032 0.000000
0.617859 0.164032 0.000000
0.747528 0.164032 0.000000
0.848083 0.164032 0.000000
0.923126 0.164032 0.000000
0.975098 0.164032 0.000000
0.000000 0.323669 0.000000
0.269379 0.323669 0.000000
0.455200 0.323669 0.000000
0.617859 0.323669 0.000000
0.747528 0.323669 0.000000
0.848083 0.323669 0.000000
0.923126 0.323669 0.000000
0.975098 0.323669 0.000000
0.000000 0.488800 0.000000
0.269379 0.488800 0.000000
0.455200 0.488800 0.000000
0.617859 0.488800 0.000000
0.747528 0.488800 0.000000
0.848083 0.488800 0.000000
0.923126 0.488800 0.000000
0.975098 0.488800 0.000000
0.000000 0.648407 0.000000
0.269379 0.648407 0.000000
0.455200 0.648407 0.000000
0.617859 0.648407 0.000000
0.747528 0.648407 0.000000
0.848083 0.648407 0.000000
0.923126 0.648407 0.000000
0.975098 0.648407 0.000000
0.000000 0.783325 0.000000
0.269379 0.783325 0.000000
0.455200 0.783325 0.000000
0.617859 0.783325 0.000000
0.747528 0.783325 0.000000
0.848083 0.783325 0.000000
0.923126 0.783325 0.000000
0.975098 0.783325 0.000000
0.000000 0.889648 0.000000
0.269379 0.889648 0.000000
0.455200 0.889648 0.000000
0.617859 0.889648 0.000000
0.747528 0.889648 0.000000
0.848083 0.889648 0.000000
0.923126 0.889648 0.000000
0.975098 0.889648 0.000000
0.000000 0.965027 0.000000
0.269379 0.965027 0.000000
0.455200 0.965027 0.000000
0.617859 0.965027 0.000000
0.747528 0.965027 0.000000
0.848083 0.965027 0.000000
0.923126 0.965027 0.000000
0.975098 0.965027 0.000000
0.000000 0.000000 0.053345
0.269379 0.000000 0.053345
0.455200 0.000000 0.053345
0.617859 0.000000 0.053345
0.747528 0.000000 0.053345
0.848083 0.000000 0.053345
0.923126 0.000000 0.053345
0.975098 0.000000 0.053345
0.000000 0.164032 0.053345
0.269379 0.164032 0.053345
0.455200 0.164032 0.053345
0.617859 0.164032 0.053345
0.747528 0.164032 0.053345
0.848083 0.164032 0.053345
0.923126 0.164032 0.053345
0.975098 0.164032 0.053345
0.000000 0.323669 0.053345
0.269379 0.323669 0.053345
0.455200 0.323669 0.053345
0.617859 0.323669 0.053345
0.747528 0.323669 0.053345
0.848083 0.323669 0.053345
0.923126 0.323669 0.053345
0.975098 0.323669 0.053345
0.000000 0.488800 0.053345
0.269379 0.488800 0.053345
0.455200 0.488800 0.053345
0.617859 0.488800 0.053345
0.747528 0.488800 0.053345
0.848083 0.488800 0.053345
0.923126 0.488800 0.053345
0.975098 0.488800 0.053345
0.000000 0.648407 0.053345
0.269379 0.648407 0.053345
0.455200 0.648407 0.053345
0.617859 0.648407 0.053345
0.747528 0.648407 0.053345
0.848083 0.648407 0.053345
0.923126 0.648407 0.053345
0.975098 0.648407 0.053345
0.000000 0.783325 0.053345
0.269379 0.783325 0.053345
0.455200 0.783325 0.053345
0.617859 0.783325 0.053345
0.747528 0.783325 0.053345
0.848083 0.783325 0.053345
0.923126 0.783325 0.053345
0.975098 0.783325 0.053345
0.000000 0.889648 0.053345
0.269379 0.889648 0.053345
0.455200 0.889648 0.053345
0.617859 0.889648 0.053345
0.747528 0.889648 0.053345
0.848083 0.889648 0.053345
0.923126 0.889648 0.053345
0.975098 0.889648 0.053345
0.000000 0.965027 0.053345
0.269379 0.965027 0.053345
0.455200 0.965027 0.053345
0.617859 0.965027 0.053345
0.747528 0.965027 0.053345
0.848083 0.965027 0.053345
0.923126 0.965027 0.053345
0.975098 0.965027 0.053345
0.000000 0.000000 0.150116
0.269379 0.000000 0.150116
0.455200 0.000000 0.150116
0.617859 0.000000 0.150116
0.747528 0.000000 0.150116
0.848083 0.000000 0.150116
0.923126 0.000000 0.150116
0.975098 0.000000 0.150116
0.000000 0.164032 0.150116
0.269379 0.164032 0.150116
0.455200 0.164032 0.150116
0.617859 0.164032 0.150116
0.747528 0.164032 0.150116
0.848083 0.164032 0.150116
0.923126 0.164032 0.150116
0.975098 0.164032 0.150116
0.000000 0.323669 0.150116
0.269379 0.323669 0.150116
0.455200 0.323669 0.150116
0.617859 0.323669 0.150116
0.747528 0.323669 0.150116
0.848083 0.323669 0.150116
0.923126 0.323669 0.150116
0.975098 0.323669 0.150116
0.000000 0.488800 0.150116
0.269379 0.488800 0.150116
0.455200 0.488800 0.150116
0.617859 0.488800 0.150116
0.747528 0.488800 0.150116
0.848083 0.488800 0.150116
0.923126 0.488800 0.150116
0.975098 0.488800 0.150116
0.000000 0.648407 0.150116
0.269379 0.648407 0.150116
0.455200 0.648407 0.150116
0.617859 0.648407 0.150116
0.747528 0.648407 0.150116
0.848083 0.648407 0.150116
0.923126 0.648407 0.150116
0.975098 0.648407 0.150116
0.000000 0.783325 0.150116
0.269379 0.783325 0.150116
0.455200 0.783325 0.150116
0.617859 0.783325 0.150116
0.747528 0.783325 0.150116
0.848083 0.783325 0.150116
0.923126 0.783325 0.150116
0.975098 0.783325 0.150116
0.000000 0.889648 0.150116
0.269379 0.889648 0.150116
0.455200 0.889648 0.150116
0.617859 0.889648 0.150116
0.747528 0.889648 0.150116
0.848083 0.889648 0.150116
0.923126 0.889648 0.150116
0.975098 0.889648 0.150116
0.000000 0.965027 0.150116
0.269379 0.965027 0.150116
0.455200 0.965027 0.150116
0.617859 0.965027 0.150116
0.747528 0.965027 0.150116
0.848083 0.965027 0.150116
0.923126 0.965027 0.150116
0.975098 0.965027 0.150116
0.000000 0.000000 0.280212
0.269379 0.000000 0.280212
0.455200 0.000000 0.280212
0.617859 0.000000 0.280212
0.747528 0.000000 0.280212
0.848083 0.000000 0.280212
0.923126 0.000000 0.280212
0.975098 0.000000 0.280212
0.000000 0.164032 0.280212
0.269379 0.164032 0.280212
0.455200 0.164032 0.280212
0.617859 0.164032 0.280212
0.747528 0.164032 0.280212
0.848083 0.164032 0.280212
0.923126 0.164032 0.280212
0.975098 0.164032 0.280212
0.000000 0.323669 0.280212
0.269379 0.323669 0.280212
0.455200 0.323669 0.280212
0.617859 0.323669 0.280212
0.747528 0.323669 0.280212
0.848083 0.323669 0.280212
0.923126 0.323669 0.280212
0.975098 0.323669 0.280212
0.000000 0.488800 0.280212
0.269379 0.488800 0.280212
0.455200 0.488800 0.280212
0.617859 0.488800 0.280212
0.747528 0.488800 0.280212
0.848083 0.488800 0.280212
0.923126 0.488800 0.280212
0.975098 0.488800 0.280212
0.000000 0.648407 0.280212
0.269379 0.648407 0.280212
0.455200 0.648407 0.280212
0.617859 0.648407 0.280212
0.747528 0.648407 0.280212
0.848083 0.648407 0.280212
0.923126 0.648407 0.280212
0.975098 0.648407 0.280212
0.000000 0.783325 0.280212
0.269379 0.783325 0.280212
0.455200 0.783325 0.280212
0.617859 0.783325 0.280212
0.747528 0.783325 0.280212
0.848083 0.783325 0.280212
0.923126 0.783325 0.280212
0.975098 0.783325 0.280212
0.000000 0.889648 0.280212
0.269379 0.889648 0.280212
0.455200 0.889648 0.280212
0.617859 0.889648 0.280212
0.747528 0.889648 0.280212
0.848083 0.889648 0.280212
0.923126 0.889648 0.280212
0.975098 0.889648 0.280212
0.000000 0.965027 0.280212
0.269379 0.965027 0.280212
0.455200 0.965027 0.280212
0.617859 0.965027 0.280212
0.747528 0.965027 0.280212
0.848083 0.965027 0.280212
0.923126 0.965027 0.280212
0.975098 0.965027 0.280212
0.000000 0.000000 0.442932
0.269379 0.000000 0.442932
0.455200 0.000000 0.442932
0.617859 0.000000 0.442932
0.747528 0.000000 0.442932
0.848083 0.000000 0.442932
0.923126 0.000000 0.442932
0.975098 0.000000 0.442932
0.000000 0.164032 0.442932
0.269379 0.164032 0.442932
0.455200 0.164032 0.442932
0.617859 0.164032 0.442932
0.747528 0.164032 0.442932
0.848083 0.164032 0.442932
0.923126 0.164032 0.442932
0.975098 0.164032 0.442932
0.000000 0.323669 0.442932
0.269379 0.323669 0.442932
0.455200 0.323669 0.442932
0.617859 0.323669 0.442932
0.747528 0.323669 0.442932
0.848083 0.323669 0.442932
0.923126 0.323669 0.442932
0.975098 0.323669 0.442932
0.000000 0.488800 0.442932
0.269379 0.488800 0.442932
0.455200 0.488800 0.442932
0.617859 0.488800 0.442932
0.747528 0.488800 0.442932
0.848083 0.488800 0.442932
0.923126 0.488800 0.442932
0.975098 0.488800 0.442932
0.000000 0.648407 0.442932
0.269379 0.648407 0.442932
0.455200 0.648407 0.442932
0.617859 0.648407 0.442932
0.747528 0.648407 0.442932
0.848083 0.648407 0.442932
0.923126 0.648407 0.442932
0.975098 0.648407 0.442932
0.000000 0.783325 0.442932
0.269379 0.783325 0.442932
0.455200 0.783325 0.442932
0.617859 0.783325 0.442932
0.747528 0.783325 0.442932
0.848083 0.783325 0.442932
0.923126 0.783325 0.442932
0.975098 0.783325 0.442932
0.000000 0.889648 0.442932
0.269379 0.889648 0.442932
0.455200 0.889648 0.442932
0.617859 0.889648 0.442932
0.747528 0.889648 0.442932
0.848083 0.889648 0.442932
0.923126 0.889648 0.442932
0.975098 0.889648 0.442932
0.000000 0.965027 0.442932
0.269379 0.965027 0.442932
0.455200 0.965027 0.442932
0.617859 0.965027 0.442932
0.747528 0.965027 0.442932
0.848083 0.965027 0.442932
0.923126 0.965027 0.442932
0.975098 0.965027 0.442932
0.000000 0.000000 0.630219
0.269379 0.000000 0.630219
0.455200 0.000000 0.630219
0.617859 0.000000 0.630219
0.747528 0.000000 0.630219
0.848083 0.000000 0.630219
0.923126 0.000000 0.630219
0.975098 0.000000 0.630219
0.000000 0.164032 0.630219
0.269379 0.164032 0.630219
0.455200 0.164032 0.630219
0.617859 0.164032 0.630219
0.747528 0.164032 0.630219
0.848083 0.164032 0.630219
0.923126 0.164032 0.630219
0.975098 0.164032 0.630219
0.000000 0.323669 0.630219
0.269379 0.323669 0.630219
0.455200 0.323669 0.630219
0.617859 0.323669 0.630219
0.747528 0.323669 0.630219
0.848083 0.323669 0.630219
0.923126 0.323669 0.630219
0.975098 0.323669 0.630219
0.000000 0.488800 0.630219
0.269379 0.488800 0.630219
0.455200 0.488800 0.630219
0.617859 0.488800 0.630219
0.747528 0.488800 0.630219
0.848083 0.488800 0.630219
0.923126 0.488800 0.630219
0.975098 0.488800 0.630219
0.000000 0.648407 0.630219
0.269379 0.648407 0.630219
0.455200 0.648407 0.630219
0.617859 0.648407 0.630219
0.747528 0.648407 0.630219
0.848083 0.648407 0.630219
0.923126 0.648407 0.630219
0.975098 0.648407 0.630219
0.000000 0.783325 0.630219
0.269379 0.783325 0.630219
0.455200 0.783325 0.630219
0.617859 0.783325 0.630219
0.747528 0.783325 0.630219
0.848083 0.783325 0.630219
0.923126 0.783325 0.630219
0.975098 0.783325 0.630219
0.000000 0.889648 0.630219
0.269379 0.889648 0.630219
0.455200 0.889648 0.630219
0.617859 0.889648 0.630219
0.747528 0.889648 0.630219
0.848083 0.889648 0.630219
0.923126 0.889648 0.630219
0.975098 0.889648 0.630219
0.000000 0.965027 0.630219
0.269379 0.965027 0.630219
0.455200 0.965027 0.630219
0.617859 0.965027 0.630219
0.747528 0.965027 0.630219
0.848083 0.965027 0.630219
0.923126 0.965027 0.630219
0.975098 0.965027 0.630219
0.000000 0.000000 0.803772
0.269379 0.000000 0.803772
0.455200 0.000000 0.803772
0.617859 0.000000 0.803772
0.747528 0.000000 0.803772
0.848083 0.000000 0.803772
0.923126 0.000000 0.803772
0.975098 0.000000 0.803772
0.000000 0.164032 0.803772
0.269379 0.164032 0.803772
0.455200 0.164032 0.803772
0.617859 0.164032 0.803772
0.747528 0.164032 0.803772
0.848083 0.164032 0.803772
0.923126 0.164032 0.803772
0.975098 0.164032 0.803772
0.000000 0.323669 0.803772
0.269379 0.323669 0.803772
0.455200 0.323669 0.803772
0.617859 0.323669 0.803772
0.747528 0.323669 0.803772
0.848083 0.323669 0.803772
0.923126 0.323669 0.803772
0.975098 0.323669 0.803772
0.000000 0.488800 0.803772
0.269379 0.488800 0.803772
0.455200 0.488800 0.803772
0.617859 0.488800 0.803772
0.747528 0.488800 0.803772
0.848083 0.488800 0.803772
0.923126 0.488800 0.803772
0.975098 0.488800 0.803772
0.000000 0.648407 0.803772
0.269379 0.648407 0.803772
0.455200 0.648407 0.803772
0.617859 0.648407 0.803772
0.747528 0.648407 0.803772
0.848083 0.648407 0.803772
0.923126 0.648407 0.803772
0.975098 0.648407 0.803772
0.000000 0.783325 0.803772
0.269379 0.783325 0.803772
0.455200 0.783325 0.803772
0.617859 0.783325 0.803772
0.747528 0.783325 0.803772
0.848083 0.783325 0.803772
0.923126 0.783325 0.803772
0.975098 0.783325 0.803772
0.000000 0.889648 0.803772
0.269379 0.889648 0.803772
0.455200 0.889648 0.803772
0.617859 0.889648 0.803772
0.747528 0.889648 0.803772
0.848083 0.889648 0.803772
0.923126 0.889648 0.803772
0.975098 0.889648 0.803772
0.000000 0.965027 0.803772
0.269379 0.965027 0.803772
0.455200 0.965027 0.803772
0.617859 0.965027 0.803772
0.747528 0.965027 0.803772
0.848083 0.965027 0.803772
0.923126 0.965027 0.803772
0.975098 0.965027 0.803772
0.000000 0.000000 0.938629
0.269379 0.000000 0.938629
0.455200 0.000000 0.938629
0.617859 0.000000 0.938629
0.747528 0.000000 0.938629
0.848083 0.000000 0.938629
0.923126 0.000000 0.938629
0.975098 0.000000 0.938629
0.000000 0.164032 0.938629
0.269379 0.164032 0.938629
0.455200 0.164032 0.938629
0.617859 0.164032 0.938629
0.747528 0.164032 0.938629
0.848083 0.164032 0.938629
0.923126 0.164032 0.938629
0.975098 0.164032 0.938629
0.000000 0.323669 0.938629
0.269379 0.323669 0.938629
0.455200 0.323669 0.938629
0.617859 0.323669 0.938629
0.747528 0.323669 0.938629
0.848083 0.323669 0.938629
0.923126 0.323669 0.938629
0.975098 0.323669 0.938629
0.000000 0.488800 0.938629
0.269379 0.488800 0.938629
0.455200 0.488800 0.938629
0.617859 0.488800 0.938629
0.747528 0.488800 0.938629
0.848083 0.488800 0.938629
0.923126 0.488800 0.938629
0.975098 0.488800 0.938629
0.000000 0.648407 0.938629
0.269379 0.648407 0.938629
0.455200 0.648407 0.938629
0.617859 0.648407 0.938629
0.747528 0.648407 0.938629
0.848083 0.648407 0.938629
0.923126 0.648407 0.938629
0.975098 0.648407 0.938629
0.000000 0.783325 0.938629
0.269379 0.783325 0.938629
0.455200 0.783325 0.938629
0.617859 0.783325 0.938629
0.747528 0.783325 0.938629
0.848083 0.783325 0.938629
0.923126 0.783325 0.938629
0.975098 0.783325 0.938629
0.000000 0.889648 0.938629
0.269379 0.889648 0.938629
0.455200 0.889648 0.938629
0.617859 0.889648 0.938629
0.747528 0.889648 0.938629
0.848083 0.889648 0.938629
0.923126 0.889648 0.938629
0.975098 0.889648 0.938629
0.000000 0.965027 0.938629
0.269379 0.965027 0.938629
0.455200 0.965027 0.938629
0.617859 0.965027 0.938629
0.747528 0.965027 0.938629
0.848083 0.965027 0.938629
0.923126 0.965027 0.938629
0.975098 0.965027 0.938629
