projects/IntermediateGraphicsAssignment1/res/luts/warm.cube
#Created by: Adobe Photoshop Export Color Lookup Plugin
TITLE "WarmLUT"
#LUT size
LUT_3D_SIZE 32
#data domain
DOMAIN_MIN 0.0 0.0 0.0
DOMAIN_MAX 1.0 1.0 1.0
#LUT data points
0.000000 0.000000 0.000000
0.086334 0.000000 0.000000
0.160522 0.000000 0.000000
0.217773 0.000000 0.000000
0.269379 0.000000 0.000000
0.318207 0.000000 0.000000
0.365234 0.000000 0.000000
0.410767 0.000000 0.000000
0.455200 0.000000 0.000000
0.498718 0.000000 0.000000
0.540710 0.000000 0.000000
0.580383 0.000000 0.000000
0.617859 0.000000 0.000000
0.653198 0.000000 0.000000
0.686523 0.000000 0.000000
0.717926 0.000000 0.000000
0.747528 0.000000 0.000000
0.775208 0.000000 0.000000
0.801208 0.000000 0.000000
0.825470 0.000000 0.000000
0.848083 0.000000 0.000000
0.869171 0.000000 0.000000
0.888641 0.000000 0.000000
0.906616 0.000000 0.000000
0.923126 0.000000 0.000000
0.938232 0.000000 0.000000
0.951874 0.000000 0.000000
0.964172 0.000000 0.000000
0.975098 0.000000 0.000000
0.984711 0.000000 0.000000
0.992981 0.000000 0.000000
1.000000 0.000000 0.000000
0.000000 0.044281 0.000000
0.086334 0.044281 0.000000
0.160522 0.044281 0.000000
0.217773 0.044281 0.000000
0.269379 0.044281 0.000000
0.318207 0.044281 0.000000
0.365234 0.044281 0.000000
0.410767 0.044281 0.000000
0.455200 0.044281 0.000000
0.498718 0.044281 0.000000
0.540710 0.044281 0.000000
0.580383 0.044281 0.000000
0.617859 0.044281 0.000000
0.653198 0.044281 0.000000
0.686523 0.044281 0.000000
0.717926 0.044281 0.000000
0.747528 0.044281 0.000000
0.775208 0.044281 0.000000
0.801208 0.044281 0.000000
0.825470 0.044281 0.000000
0.848083 0.044281 0.000000
0.869171 0.044281 0.000000
0.888641 0.044281 0.000000
0.906616 0.044281 0.000000
0.923126 0.044281 0.000000
0.938232 0.044281 0.000000
0.951874 0.044281 0.000000
0.964172 0.044281 0.000000
0.975098 0.044281 0.000000
0.984711 0.044281 0.000000
0.992981 0.044281 0.000000
1.000000 0.044281 0.000000
0.000000 0.084778 0.000000
0.086334 0.084778 0.000000
0.160522 0.084778 0.000000
0.217773 0.084778 0.000000
0.269379 0.084778 0.000000
0.318207 0.084778 0.000000
0.365234 0.084778 0.000000
0.410767 0.084778 0.000000
0.455200 0.084778 0.000000
0.498718 0.084778 0.000000
0.540710 0.084778 0.000000
0.580383 0.084778 0.000000
0.617859 0.084778 0.000000
0.653198 0.084778 0.000000
0.686523 0.084778 0.000000
0.717926 0.084778 0.000000
0.747528 0.084778 0.000000
0.775208 0.084778 0.000000
0.801208 0.084778 0.000000
0.825470 0.084778 0.000000
0.848083 0.084778 0.000000
0.869171 0.084778 0.000000
0.888641 0.084778 0.000000
0.906616 0.084778 0.000000
0.923126 0.084778 0.000000
0.938232 0.084778 0.000000
0.951874 0.084778 0.000000
0.964172 0.084778 0.000000
0.975098 0.084778 0.000000
0.984711 0.084778 0.000000
0.992981 0.084778 0.000000
1.000000 0.084778 0.000000
0.000000 0.124512 0.000000
0.086334 0.124512 0.000000
0.160522 0.124512 0.000000
0.217773 0.124512 0.000000
0.269379 0.124512 0.000000
0.318207 0.124512 0.000000
0.365234 0.124512 0.000000
0.410767 0.124512 0.000000
0.455200 0.124512 0.000000
0.498718 0.124512 0.000000
0.540710 0.124512 0.000000
0.580383 0.124512 0.000000
0.617859 0.124512 0.000000
0.653198 0.124512 0.000000
0.686523 0.124512 0.000000
0.717926 0.124512 0.000000
0.747528 0.124512 0.000000
0.775208 0.124512 0.000000
0.801208 0.124512 0.000000
0.825470 0.124512 0.000000
0.848083 0.124512 0.000000
0.869171 0.124512 0.000000
0.888641 0.124512 0.000000
0.906616 0.124512 0.000000
0.923126 0.124512 0.000000
0.938232 0.124512 0.000000
0.951874 0.124512 0.000000
0.964172 0.124512 0.000000
0.975098 0.124512 0.000000
0.984711 0.124512 0.000000
0.992981 0.124512 0.000000
1.000000 0.124512 0.000000
0.000000 0.164032 0.000000
0.086334 0.164032 0.000000
0.160522 0.164032 0.000000
0.217773 0.164032 0.000000
0.269379 0.164032 0.000000
0.318207 0.164032 0.000000
0.365234 0.164032 0.000000
0.410767 0.164032 0.000000
0.455200 0.164032 0.000000
0.498718 0.164032 0.000000
0.540710 0.164032 0.000000
0.580383 0.164032 0.000000
0.617859 0.164032 0.000000
0.653198 0.164032 0.000000
0.686523 0.164032 0.000000
0.717926 0.164032 0.000000
0.747528 0.164032 0.000000
0.775208 0.164032 0.000000
0.801208 0.164032 0.000000
0.825470 0.164032 0.000000
0.848083 0.164032 0.000000
0.869171 0.164032 0.000000
0.888641 0.164032 0.000000
0.906616 0.164032 0.000000
0.923126 0.164032 0.000000
0.938232 0.164032 0.000000
0.951874 0.164032 0.000000
0.964172 0.164032 0.000000
0.975098 0.164032 0.000000
0.984711 0.164032 0.000000
0.992981 0.164032 0.000000
1.000000 0.164032 0.000000
0.000000 0.203613 0.000000
0.086334 0.203613 0.000000
0.160522 0.203613 0.000000
0.217773 0.203613 0.000000
0.269379 0.203613 0.000000
0.318207 0.203613 0.000000
0.365234 0.203613 0.000000
0.410767 0.203613 0.000000
0.455200 0.203613 0.000000
0.498718 0.203613 0.000000
0.540710 0.203613 0.000000
0.580383 0.203613 0.000000
0.617859 0.203613 0.000000
0.653198 0.203613 0.000000
0.686523 0.203613 0.000000
0.717926 0.203613 0.000000
0.747528 0.203613 0.000000
0.775208 0.203613 0.000000
0.801208 0.203613 0.000000
0.825470 0.203613 0.000000
0.848083 0.203613 0.000000
0.869171 0.203613 0.000000
0.888641 0.203613 0.000000
0.906616 0.203613 0.000000
0.923126 0.203613 0.000000
0.938232 0.203613 0.000000
0.951874 0.203613 0.000000
0.964172 0.203613 0.000000
0.975098 0.203613 0.000000
0.984711 0.203613 0.000000
0.992981 0.203613 0.000000
1.000000 0.203613 0.000000
0.000000 0.243347 0.000000
0.086334 0.243347 0.000000
0.160522 0.243347 0.000000
0.217773 0.243347 0.000000
0.269379 0.243347 0.000000
0.318207 0.243347 0.000000
0.365234 0.243347 0.000000
0.410767 0.243347 0.000000
0.455200 0.243347 0.000000
0.498718 0.243347 0.000000
0.540710 0.243347 0.000000
0.580383 0.243347 0.000000
0.617859 0.243347 0.000000
0.653198 0.243347 0.000000
0.686523 0.243347 0.000000
0.717926 0.243347 0.000000
0.747528 0.243347 0.000000
0.775208 0.243347 0.000000
0.801208 0.243347 0.000000
0.825470 0.243347 0.000000
0.848083 0.243347 0.000000
0.869171 0.243347 0.000000
0.888641 0.243347 0.000000
0.906616 0.243347 0.000000
0.923126 0.243347 0.000000
0.938232 0.243347 0.000000
0.951874 0.243347 0.000000
0.964172 0.243347 0.000000
0.975098 0.243347 0.000000
0.984711 0.243347 0.000000
0.992981 0.243347 0.000000
1.000000 0.243347 0.000000
0.000000 0.283356 0.000000
0.086334 0.283356 0.000000
0.160522 0.283356 0.000000
0.217773 0.283356 0.000000
0.269379 0.283356 0.000000
0.318207 0.283356 0.000000
0.365234 0.283356 0.000000
0.410767 0.283356 0.000000
0.455200 0.283356 0.000000
0.498718 0.283356 0.000000
0.540710 0.283356 0.000000
0.580383 0.283356 0.000000
0.617859 0.283356 0.000000
0.653198 0.283356 0.000000
0.686523 0.283356 0.000000
0.717926 0.283356 0.000000
0.747528 0.283356 0.000000
0.775208 0.283356 0.000000
0.801208 0.283356 0.000000
0.825470 0.283356 0.000000
0.848083 0.283356 0.000000
0.869171 0.283356 0.000000
0.888641 0.283356 0.000000
0.906616 0.283356 0.000000
0.923126 0.283356 0.000000
0.938232 0.283356 0.000000
0.951874 0.283356 0.000000
0.964172 0.283356 0.000000
0.975098 0.283356 0.000000
0.984711 0.283356 0.000000
0.992981 0.283356 0.000000
1.000000 0.283356 0.000000
0.000000 0.323669 0.000000
0.086334 0.323669 0.000000
0.160522 0.323669 0.000000
0.217773 0.323669 0.000000
0.269379 0.323669 0.000000
0.318207 0.323669 0.000000
0.365234 0.323669 0.000000
0.410767 0.323669 0.000000
0.455200 0.323669 0.000000
0.498718 0.323669 0.000000
0.540710 0.323669 0.000000
0.580383 0.323669 0.000000
0.617859 0.323669 0.000000
0.653198 0.323669 0.000000
0.686523 0.323669 0.000000
0.717926 0.323669 0.000000
0.747528 0.323669 0.000000
0.775208 0.323669 0.000000
0.801208 0.323669 0.000000
0.825470 0.323669 0.000000
0.848083 0.323669 0.000000
0.869171 0.323669 0.000000
0.888641 0.323669 0.000000
0.906616 0.323669 0.000000
0.923126 0.323669 0.000000
0.938232 0.323669 0.000000
0.951874 0.323669 0.000000
0.964172 0.323669 0.000000
0.975098 0.323669 0.000000
0.984711 0.323669 0.000000
0.992981 0.323669 0.000000
1.000000 0.323669 0.000000
0.000000 0.364380 0.000000
0.086334 0.364380 0.000000
0.160522 0.364380 0.000000
0.217773 0.364380 0.000000
0.269379 0.364380 0.000000
0.318207 0.364380 0.000000
0.365234 0.364380 0.000000
0.410767 0.364380 0.000000
0.455200 0.364380 0.000000
0.498718 0.364380 0.000000
0.540710 0.364380 0.000000
0.580383 0.364380 0.000000
0.617859 0.364380 0.000000
0.653198 0.364380 0.000000
0.686523 0.364380 0.000000
0.717926 0.364380 0.000000
0.747528 0.364380 0.000000
0.775208 0.364380 0.000000
0.801208 0.364380 0.000000
0.825470 0.364380 0.000000
0.848083 0.364380 0.000000
0.869171 0.364380 0.000000
0.888641 0.364380 0.000000
0.906616 0.364380 0.000000
0.923126 0.364380 0.000000
0.938232 0.364380 0.000000
0.951874 0.364380 0.000000
0.964172 0.364380 0.000000
0.975098 0.364380 0.000000
0.984711 0.364380 0.000000
0.992981 0.364380 0.000000
1.000000 0.364380 0.000000
0.000000 0.405426 0.000000
0.086334 0.405426 0.000000
0.160522 0.405426 0.000000
0.217773 0.405426 0.000000
0.269379 0.405426 0.000000
0.318207 0.405426 0.000000
0.365234 0.405426 0.000000
0.410767 0.405426 0.000000
0.455200 0.405426 0.000000
0.498718 0.405426 0.000000
0.540710 0.405426 0.000000
0.580383 0.405426 0.000000
0.617859 0.405426 0.000000
0.653198 0.405426 0.000000
0.686523 0.405426 0.000000
0.717926 0.405426 0.000000
0.747528 0.405426 0.000000
0.775208 0.405426 0.000000
0.801208 0.405426 0.000000
0.825470 0.405426 0.000000
0.848083 0.405426 0.000000
0.869171 0.405426 0.000000
0.888641 0.405426 0.000000
0.906616 0.405426 0.000000
0.923126 0.405426 0.000000
0.938232 0.405426 0.000000
0.951874 0.405426 0.000000
0.964172 0.405426 0.000000
0.975098 0.405426 0.000000
0.984711 0.405426 0.000000
0.992981 0.405426 0.000000
1.000000 0.405426 0.000000
0.000000 0.446869 0.000000
0.086334 0.446869 0.000000
0.160522 0.446869 0.000000
0.217773 0.446869 0.000000
0.269379 0.446869 0.000000
0.318207 0.446869 0.000000
0.365234 0.446869 0.000000
0.410767 0.446869 0.000000
0.455200 0.446869 0.000000
0.498718 0.446869 0.000000
0.540710 0.446869 0.000000
0.580383 0.446869 0.000000
0.617859 0.446869 0.000000
0.653198 0.446869 0.000000
0.686523 0.446869 0.000000
0.717926 0.446869 0.000000
0.747528 0.446869 0.000000
0.775208 0.446869 0.000000
0.801208 0.446869 0.000000
0.825470 0.446869 0.000000
0.848083 0.446869 0.000000
0.869171 0.446869 0.000000
0.888641 0.446869 0.000000
0.906616 0.446869 0.000000
0.923126 0.446869 0.000000
0.938232 0.446869 0.000000
0.951874 0.446869 0.000000
0.964172 0.446869 0.000000
0.975098 0.446869 0.000000
0.984711 0.446869 0.000000
0.992981 0.446869 0.000000
1.000000 0.446869 0.000000
0.000000 0.488800 0.000000
0.086334 0.488800 0.000000
0.160522 0.488800 0.000000
0.217773 0.488800 0.000000
0.269379 0.488800 0.000000
0.318207 0.488800 0.000000
0.365234 0.488800 0.000000
0.410767 0.488800 0.000000
0.455200 0.488800 0.000000
0.498718 0.488800 0.000000
0.540710 0.488800 0.000000
0.580383 0.488800 0.000000
0.617859 0.488800 0.000000
0.653198 0.488800 0.000000
0.686523 0.488800 0.000000
0.717926 0.488800 0.000000
0.747528 0.488800 0.000000
0.775208 0.488800 0.000000
0.801208 0.488800 0.000000
0.825470 0.488800 0.000000
0.848083 0.488800 0.000000
0.869171 0.488800 0.000000
0.888641 0.488800 0.000000
0.906616 0.488800 0.000000
0.923126 0.488800 0.000000
0.938232 0.488800 0.000000
0.951874 0.488800 0.000000
0.964172 0.488800 0.000000
0.975098 0.488800 0.000000
0.984711 0.488800 0.000000
0.992981 0.488800 0.000000
1.000000 0.488800 0.000000
0.000000 0.530670 0.000000
0.086334 0.530670 0.000000
0.160522 0.530670 0.000000
0.217773 0.530670 0.000000
0.269379 0.530670 0.000000
0.318207 0.530670 0.000000
0.365234 0.530670 0.000000
0.410767 0.530670 0.000000
0.455200 0.530670 0.000000
0.498718 0.530670 0.000000
0.540710 0.530670 0.000000
0.580383 0.530670 0.000000
0.617859 0.530670 0.000000
0.653198 0.530670 0.000000
0.686523 0.530670 0.000000
0.717926 0.530670 0.000000
0.747528 0.530670 0.000000
0.775208 0.530670 0.000000
0.801208 0.530670 0.000000
0.825470 0.530670 0.000000
0.848083 0.530670 0.000000
0.869171 0.530670 0.000000
0.888641 0.530670 0.000000
0.906616 0.530670 0.000000
0.923126 0.530670 0.000000
0.938232 0.530670 0.000000
0.951874 0.530670 0.000000
0.964172 0.530670 0.000000
0.975098 0.530670 0.000000
0.984711 0.530670 0.000000
0.992981 0.530670 0.000000
1.000000 0.530670 0.000000
0.000000 0.571350 0.000000
0.086334 0.571350 0.000000
0.160522 0.571350 0.000000
0.217773 0.571350 0.000000
0.269379 0.571350 0.000000
0.318207 0.571350 0.000000
0.365234 0.571350 0.000000
0.410767 0.571350 0.000000
0.455200 0.571350 0.000000
0.498718 0.571350 0.000000
0.540710 0.571350 0.000000
0.580383 0.571350 0.000000
0.617859 0.571350 0.000000
0.653198 0.571350 0.000000
0.686523 0.571350 0.000000
0.717926 0.571350 0.000000
0.747528 0.571350 0.000000
0.775208 0.571350 0.000000
0.801208 0.571350 0.000000
0.825470 0.571350 0.000000
0.848083 0.571350 0.000000
0.869171 0.571350 0.000000
0.888641 0.571350 0.000000
0.906616 0.571350 0.000000
0.923126 0.571350 0.000000
0.938232 0.571350 0.000000
0.951874 0.571350 0.000000
0.964172 0.571350 0.000000
0.975098 0.571350 0.000000
0.984711 0.571350 0.000000
0.992981 0.571350 0.000000
1.000000 0.571350 0.000000
0.000000 0.610596 0.000000
0.086334 0.610596 0.000000
0.160522 0.610596 0.000000
0.217773 0.610596 0.000000
0.269379 0.610596 0.000000
0.318207 0.610596 0.000000
0.365234 0.610596 0.000000
0.410767 0.610596 0.000000
0.455200 0.610596 0.000000
0.498718 0.610596 0.000000
0.540710 0.610596 0.000000
0.580383 0.610596 0.000000
0.617859 0.610596 0.000000
0.653198 0.610596 0.000000
0.686523 0.610596 0.000000
0.717926 0.610596 0.000000
0.747528 0.610596 0.000000
0.775208 0.610596 0.000000
0.801208 0.610596 0.000000
0.825470 0.610596 0.000000
0.848083 0.610596 0.000000
0.869171 0.610596 0.000000
0.888641 0.610596 0.000000
0.906616 0.610596 0.000000
0.923126 0.610596 0.000000
0.938232 0.610596 0.000000
0.951874 0.610596 0.000000
0.964172 0.610596 0.000000
0.975098 0.610596 0.000000
0.984711 0.610596 0.000000
0.992981 0.610596 0.000000
1.000000 0.610596 0.000000
0.000000 0.648407 0.000000
0.086334 0.648407 0.000000
0.160522 0.648407 0.000000
0.217773 0.648407 0.000000
0.269379 0.648407 0.000000
0.318207 0.648407 0.000000
0.365234 0.648407 0.000000
0.410767 0.648407 0.000000
0.455200 0.648407 0.000000
0.498718 0.648407 0.000000
0.540710 0.648407 0.000000
0.580383 0.648407 0.000000
0.617859 0.648407 0.000000
0.653198 0.648407 0.000000
0.686523 0.648407 0.000000
0.717926 0.648407 0.000000
0.747528 0.648407 0.000000
0.775208 0.648407 0.000000
0.801208 0.648407 0.000000
0.825470 0.648407 0.000000
0.848083 0.648407 0.000000
0.869171 0.648407 0.000000
0.888641 0.648407 0.000000
0.906616 0.648407 0.000000
0.923126 0.648407 0.000000
0.938232 0.648407 0.000000
0.951874 0.648407 0.000000
0.964172 0.648407 0.000000
0.975098 0.648407 0.000000
0.984711 0.648407 0.000000
0.992981 0.648407 0.000000
1.000000 0.648407 0.000000
0.000000 0.684662 0.000000
0.086334 0.684662 0.000000
0.160522 0.684662 0.000000
0.217773 0.684662 0.000000
0.269379 0.684662 0.000000
0.318207 0.684662 0.000000
0.365234 0.684662 0.000000
0.410767 0.684662 0.000000
0.455200 0.684662 0.000000
0.498718 0.684662 0.000000
0.540710 0.684662 0.000000
0.580383 0.684662 0.000000
0.617859 0.684662 0.000000
0.653198 0.684662 0.000000
0.686523 0.684662 0.000000
0.717926 0.684662 0.000000
0.747528 0.684662 0.000000
0.775208 0.684662 0.000000
0.801208 0.684662 0.000000
0.825470 0.684662 0.000000
0.848083 0.684662 0.000000
0.869171 0.684662 0.000000
0.888641 0.684662 0.000000
0.906616 0.684662 0.000000
0.923126 0.684662 0.000000
0.938232 0.684662 0.000000
0.951874 0.684662 0.000000
0.964172 0.684662 0.000000
0.975098 0.684662 0.000000
0.984711 0.684662 0.000000
0.992981 0.684662 0.000000
1.000000 0.684662 0.000000
0.000000 0.719269 0.000000
0.086334 0.719269 0.000000
0.160522 0.719269 0.000000
0.217773 0.719269 0.000000
0.269379 0.719269 0.000000
0.318207 0.719269 0.000000
0.365234 0.719269 0.000000
0.410767 0.719269 0.000000
0.455200 0.719269 0.000000
0.498718 0.719269 0.000000
0.540710 0.719269 0.000000
0.580383 0.719269 0.000000
0.617859 0.719269 0.000000
0.653198 0.719269 0.000000
0.686523 0.719269 0.000000
0.717926 0.719269 0.000000
0.747528 0.719269 0.000000
0.775208 0.719269 0.000000
0.801208 0.719269 0.000000
0.825470 0.719269 0.000000
0.848083 0.719269 0.000000
0.869171 0.719269 0.000000
0.888641 0.719269 0.000000
0.906616 0.719269 0.000000
0.923126 0.719269 0.000000
0.938232 0.719269 0.000000
0.951874 0.719269 0.000000
0.964172 0.719269 0.000000
0.975098 0.719269 0.000000
0.984711 0.719269 0.000000
0.992981 0.719269 0.000000
1.000000 0.719269 0.000000
0.000000 0.752167 0.000000
0.086334 0.752167 0.000000
0.160522 0.752167 0.000000
0.217773 0.752167 0.000000
0.269379 0.752167 0.000000
0.318207 0.752167 0.000000
0.365234 0.752167 0.000000
0.410767 0.752167 0.000000
0.455200 0.752167 0.000000
0.498718 0.752167 0.000000
0.540710 0.752167 0.000000
0.580383 0.752167 0.000000
0.617859 0.752167 0.000000
0.653198 0.752167 0.000000
0.686523 0.752167 0.000000
0.717926 0.752167 0.000000
0.747528 0.752167 0.000000
0.775208 0.752167 0.000000
0.801208 0.752167 0.000000
0.825470 0.752167 0.000000
0.848083 0.752167 0.000000
0.869171 0.752167 0.000000
0.888641 0.752167 0.000000
0.906616 0.752167 0.000000
0.923126 0.752167 0.000000
0.938232 0.752167 0.000000
0.951874 0.752167 0.000000
0.964172 0.752167 0.000000
0.975098 0.752167 0.000000
0.984711 0.752167 0.000000
0.992981 0.752167 0.000000
1.000000 0.752167 0.000000
0.000000 0.783325 0.000000
0.086334 0.783325 0.000000
0.160522 0.783325 0.000000
0.217773 0.783325 0.000000
0.269379 0.783325 0.000000
0.318207 0.783325 0.000000
0.365234 0.783325 0.000000
0.410767 0.783325 0.000000
0.455200 0.783325 0.000000
0.498718 0.783325 0.000000
0.540710 0.783325 0.000000
0.580383 0.783325 0.000000
0.617859 0.783325 0.000000
0.653198 0.783325 0.000000
0.686523 0.783325 0.000000
0.717926 0.783325 0.000000
0.747528 0.783325 0.000000
0.775208 0.783325 0.000000
0.801208 0.783325 0.000000
0.825470 0.783325 0.000000
0.848083 0.783325 0.000000
0.869171 0.783325 0.000000
0.888641 0.783325 0.000000
0.906616 0.783325 0.000000
0.923126 0.783325 0.000000
0.938232 0.783325 0.000000
0.951874 0.783325 0.000000
0.964172 0.783325 0.000000
0.975098 0.783325 0.000000
0.984711 0.783325 0.000000
0.992981 0.783325 0.000000
1.000000 0.783325 0.000000
0.000000 0.812683 0.000000
0.086334 0.812683 0.000000
0.160522 0.812683 0.000000
0.217773 0.812683 0.000000
0.269379 0.812683 0.000000
0.318207 0.812683 0.000000
0.365234 0.812683 0.000000
0.410767 0.812683 0.000000
0.455200 0.812683 0.000000
0.498718 0.812683 0.000000
0.540710 0.812683 0.000000
0.580383 0.812683 0.000000
0.617859 0.812683 0.000000
0.653198 0.812683 0.000000
0.686523 0.812683 0.000000
0.717926 0.812683 0.000000
0.747528 0.812683 0.000000
0.775208 0.812683 0.000000
0.801208 0.812683 0.000000
0.825470 0.812683 0.000000
0.848083 0.812683 0.000000
0.869171 0.812683 0.000000
0.888641 0.812683 0.000000
0.906616 0.812683 0.000000
0.923126 0.812683 0.000000
0.938232 0.812683 0.000000
0.951874 0.812683 0.000000
0.964172 0.812683 0.000000
0.975098 0.812683 0.000000
0.984711 0.812683 0.000000
0.992981 0.812683 0.000000
1.000000 0.812683 0.000000
0.000000 0.840240 0.000000
0.086334 0.840240 0.000000
0.160522 0.840240 0.000000
0.217773 0.840240 0.000000
0.269379 0.840240 0.000000
0.318207 0.840240 0.000000
0.365234 0.840240 0.000000
0.410767 0.840240 0.000000
0.455200 0.840240 0.000000
0.498718 0.840240 0.000000
0.540710 0.840240 0.000000
0.580383 0.840240 0.000000
0.617859 0.840240 0.000000
0.653198 0.840240 0.000000
0.686523 0.840240 0.000000
0.717926 0.840240 0.000000
0.747528 0.840240 0.000000
0.775208 0.840240 0.000000
0.801208 0.840240 0.000000
0.825470 0.840240 0.000000
0.848083 0.840240 0.000000
0.869171 0.840240 0.000000
0.888641 0.840240 0.000000
0.906616 0.840240 0.000000
0.923126 0.840240 0.000000
0.938232 0.840240 0.000000
0.951874 0.840240 0.000000
0.964172 0.840240 0.000000
0.975098 0.840240 0.000000
0.984711 0.840240 0.000000
0.992981 0.840240 0.000000
1.000000 0.840240 0.000000
0.000000 0.865906 0.000000
0.086334 0.865906 0.000000
0.160522 0.865906 0.000000
0.217773 0.865906 0.000000
0.269379 0.865906 0.000000
0.318207 0.865906 0.000000
0.365234 0.865906 0.000000
0.410767 0.865906 0.000000
0.455200 0.865906 0.000000
0.498718 0.865906 0.000000
0.540710 0.865906 0.000000
0.580383 0.865906 0.000000
0.617859 0.865906 0.000000
0.653198 0.865906 0.000000
0.686523 0.865906 0.000000
0.717926 0.865906 0.000000
0.747528 0.865906 0.000000
0.775208 0.865906 0.000000
0.801208 0.865906 0.000000
0.825470 0.865906 0.000000
0.848083 0.865906 0.000000
0.869171 0.865906 0.000000
0.888641 0.865906 0.000000
0.906616 0.865906 0.000000
0.923126 0.865906 0.000000
0.938232 0.865906 0.000000
0.951874 0.865906 0.000000
0.964172 0.865906 0.000000
0.975098 0.865906 0.000000
0.984711 0.865906 0.000000
0.992981 0.865906 0.000000
1.000000 0.865906 0.000000
0.000000 0.889648 0.000000
0.086334 0.889648 0.000000
0.160522 0.889648 0.000000
0.217773 0.889648 0.000000
0.269379 0.889648 0.000000
0.318207 0.889648 0.000000
0.365234 0.889648 0.000000
0.410767 0.889648 0.000000
0.455200 0.889648 0.000000
0.498718 0.889648 0.000000
0.540710 0.889648 0.000000
0.580383 0.889648 0.000000
0.617859 0.889648 0.000000
0.653198 0.889648 0.000000
0.686523 0.889648 0.000000
0.717926 0.889648 0.000000
0.747528 0.889648 0.000000
0.775208 0.889648 0.000000
0.801208 0.889648 0.000000
0.825470 0.889648 0.000000
0.848083 0.889648 0.000000
0.869171 0.889648 0.000000
0.888641 0.889648 0.000000
0.906616 0.889648 0.000000
0.923126 0.889648 0.000000
0.938232 0.889648 0.000000
0.951874 0.889648 0.000000
0.964172 0.889648 0.000000
0.975098 0.889648 0.000000
0.984711 0.889648 0.000000
0.992981 0.889648 0.000000
1.000000 0.889648 0.000000
0.000000 0.911499 0.000000
0.086334 0.911499 0.000000
0.160522 0.911499 0.000000
0.217773 0.911499 0.000000
0.269379 0.911499 0.000000
0.318207 0.911499 0.000000
0.365234 0.911499 0.000000
0.410767 0.911499 0.000000
0.455200 0.911499 0.000000
0.498718 0.911499 0.000000
0.540710 0.911499 0.000000
0.580383 0.911499 0.000000
0.617859 0.911499 0.000000
0.653198 0.911499 0.000000
0.686523 0.911499 0.000000
0.717926 0.911499 0.000000
0.747528 0.911499 0.000000
0.775208 0.911499 0.000000
0.801208 0.911499 0.000000
0.825470 0.911499 0.000000
0.848083 0.911499 0.000000
0.869171 0.911499 0.000000
0.888641 0.911499 0.000000
0.906616 0.911499 0.000000
0.923126 0.911499 0.000000
0.938232 0.911499 0.000000
0.951874 0.911499 0.000000
0.964172 0.911499 0.000000
0.975098 0.911499 0.000000
0.984711 0.911499 0.000000
0.992981 0.911499 0.000000
1.000000 0.911499 0.000000
0.000000 0.931335 0.000000
0.086334 0.931335 0.000000
0.160522 0.931335 0.000000
0.217773 0.931335 0.000000
0.269379 0.931335 0.000000
0.318207 0.931335 0.000000
0.365234 0.931335 0.000000
0.410767 0.931335 0.000000
0.455200 0.931335 0.000000
0.498718 0.931335 0.000000
0.540710 0.931335 0.000000
0.580383 0.931335 0.000000
0.617859 0.931335 0.000000
0.653198 0.931335 0.000000
0.686523 0.931335 0.000000
0.717926 0.931335 0.000000
0.747528 0.931335 0.000000
0.775208 0.931335 0.000000
0.801208 0.931335 0.000000
0.825470 0.931335 0.000000
0.848083 0.931335 0.000000
0.869171 0.931335 0.000000
0.888641 0.931335 0.000000
0.906616 0.931335 0.000000
0.923126 0.931335 0.000000
0.938232 0.931335 0.000000
0.951874 0.931335 0.000000
0.964172 0.931335 0.000000
0.975098 0.931335 0.000000
0.984711 0.931335 0.000000
0.992981 0.931335 0.000000
1.000000 0.931335 0.000000
0.000000 0.949219 0.000000
0.086334 0.949219 0.000000
0.160522 0.949219 0.000000
0.217773 0.949219 0.000000
0.269379 0.949219 0.000000
0.318207 0.949219 0.000000
0.365234 0.949219 0.000000
0.410767 0.949219 0.000000
0.455200 0.949219 0.000000
0.498718 0.949219 0.000000
0.540710 0.949219 0.000000
0.580383 0.949219 0.000000
0.617859 0.949219 0.000000
0.653198 0.949219 0.000000
0.686523 0.949219 0.000000
0.717926 0.949219 0.000000
0.747528 0.949219 0.000000
0.775208 0.949219 0.000000
