projects/IntermediateGraphicsAssignment1/res/luts/warm.cube
#Created by: Adobe Photoshop Export Color Lookup Plugin
TITLE "WarmLUT"
#LUT size
LUT_3D_SIZE 5
#data domain
#LUT data points
DOMAIN_MIN 0.000000 0.000000 0.000000
DOMAIN_MAX 0.903226 0.903226 0.903226
0.000000 0.000000 0.000000
0.410767 0.000000 0.000000
0.686523 0.000000 0.000000
0.869171 0.000000 0.000000
0.975098 0.000000 0.000000
0.000000 0.283356 0.000000
0.410767 0.283356 0.000000
0.686523 0.283356 0.000000
0.869171 0.283356 0.000000
0.975098 0.283356 0.000000
0.000000 0.571350 0.000000
0.410767 0.571350 0.000000
0.686523 0.571350 0.000000
0.869171 0.571350 0.000000
0.975098 0.571350 0.000000
0.000000 0.812683 0.000000
0.410767 0.812683 0.000000
0.686523 0.812683 0.000000
0.869171 0.812683 0.000000
0.975098 0.812683 0.000000
0.000000 0.965027 0.000000
0.410767 0.965027 0.000000
0.686523 0.965027 0.000000
0.869171 0.965027 0.000000
0.975098 0.965027 0.000000
0.000000 0.000000 0.122681
0.410767 0.000000 0.122681
0.686523 0.000000 0.122681
0.869171 0.000000 0.122681
0.975098 0.000000 0.122681
0.000000 0.283356 0.122681
0.410767 0.283356 0.122681
0.686523 0.283356 0.122681
0.869171 0.283356 0.122681
0.975098 0.283356 0.122681
0.000000 0.571350 0.122681
0.410767 0.571350 0.122681
0.686523 0.571350 0.122681
0.869171 0.571350 0.122681
0.975098 0.571350 0.122681
0.000000 0.812683 0.122681
0.410767 0.812683 0.122681
0.686523 0.812683 0.122681
0.869171 0.812683 0.122681
0.975098 0.812683 0.122681
0.000000 0.965027 0.122681
0.410767 0.965027 0.122681
0.686523 0.965027 0.122681
0.869171 0.965027 0.122681
0.975098 0.965027 0.122681
0.000000 0.000000 0.357483
0.410767 0.000000 0.357483
0.686523 0.000000 0.357483
0.869171 0.000000 0.357483
0.975098 0.000000 0.357483
0.000000 0.283356 0.357483
0.410767 0.283356 0.357483
0.686523 0.283356 0.357483
0.869171 0.283356 0.357483
0.975098 0.283356 0.357483
0.000000 0.571350 0.357483
0.410767 0.571350 0.357483
0.686523 0.571350 0.357483
0.869171 0.571350 0.357483
0.975098 0.571350 0.357483
0.000000 0.812683 0.357483
0.410767 0.812683 0.357483
0.686523 0.812683 0.357483
0.869171 0.812683 0.357483
0.975098 0.812683 0.357483
0.000000 0.965027 0.357483
0.410767 0.965027 0.357483
0.686523 0.965027 0.357483
0.869171 0.965027 0.357483
0.975098 0.965027 0.357483
0.000000 0.000000 0.675934
0.410767 0.000000 0.675934
0.686523 0.000000 0.675934
0.869171 0.000000 0.675934
0.975098 0.000000 0.675934
0.000000 0.283356 0.675934
0.410767 0.283356 0.675934
0.686523 0.283356 0.675934
0.869171 0.283356 0.675934
0.975098 0.283356 0.675934
0.000000 0.571350 0.675934
0.410767 0.571350 0.675934
0.686523 0.571350 0.675934
0.869171 0.571350 0.675934
0.975098 0.571350 0.675934
0.000000 0.812683 0.675934
0.410767 0.812683 0.675934
0.686523 0.812683 0.675934
0.869171 0.812683 0.675934
0.975098 0.812683 0.675934
0.000000 0.965027 0.675934
0.410767 0.965027 0.675934
0.686523 0.965027 0.675934
0.869171 0.965027 0.675934
0.975098 0.965027 0.675934
0.000000 0.000000 0.938629
0.410767 0.000000 0.938629
0.686523 0.000000 0.938629
0.869171 0.000000 0.938629
0.975098 0.000000 0.938629
0.000000 0.283356 0.938629
0.410767 0.283356 0.938629
0.686523 0.283356 0.938629
0.869171 0.283356 0.938629
0.975098 0.283356 0.938629
0.000000 0.571350 0.938629
0.410767 0.571350 0.938629
0.686523 0.571350 0.938629
0.869171 0.571350 0.938629
0.975098 0.571350 0.938629
0.000000 0.812683 0.938629
0.410767 0.812683 0.938629
0.686523 0.812683 0.938629
0.869171 0.812683 0.938629
0.975098 0.812683 0.938629
0.000000 0.965027 0.938629
0.410767 0.965027 0.938629
0.686523 0.965027 0.938629
0.869171 0.965027 0.938629
0.975098 0.965027 0.938629
